!!!!SEGMENT: pl-cz--i-10--002_engel-jan--requiem-dies-irae.krn
!!!cenid: 17xx:877
!!!COM: Engel, Jan
!!!COM-rismid: pe30009138
!!!CDT: <1772->1788
!!!CNT:
!!!OPR: Requiem
!!!OTL: Dies irae
!!!OMV: 002
!!!PDT:
!!!AGN: Sacred; Requiem
!!!SMS-siglum: PL-CZ
!!!SMS-shelfmark: I-10
!!!SMS-shelfwork: 001-002 M
!!!SMS-variant:
!!!SMS-altvar:
!!!NIFC-rismid: 300000291
!!!URL-scan: http://repozytorium.nifc.pl/skany/pl-cz-nut--i-10
!!!ONB-nifc: UWAGA: części Requiem: Requiem, Dies irae, Domine Jesu Christe, Sanctus et Benedictus, Osanna, Agnus Dei
!!!AIN: 1 alto 2 clars 4 empty 2 flt 1 tenor 2 viola 2 violn 1 vox
!!!key:
**kern	**dynam	**kern	**dynam	**kern	**dynam	**kern	**dynam	**kern	**dynam	**kern	**text	**kern	**text	**kern	**text	**kern	**text	**kern	**dynam	**kern	**dynam	**kern	**dynam	**kern	**dynam	**kern	**dynam	**kern	**dynam
*part15	*part15	*part14	*part14	*part13	*part13	*part12	*part12	*part11	*part11	*part10	*part10	*part9	*part9	*part8	*part8	*part7	*part7	*part6	*	*part5	*	*part4	*part4	*part3	*part3	*part2	*part2	*part1	*part1
*	*	*group4	*	*group4	*	*group4	*	*group4	*	*group3	*	*group3	*	*group3	*	*group3	*	*group2	*	*group2	*	*group1	*	*group1	*	*group1	*	*group1	*
*staff15	*	*staff14	*	*staff13	*	*staff12	*	*staff11	*	*staff10	*staff10	*staff9	*staff9	*staff8	*staff8	*staff7	*staff7	*staff6	*	*staff5	*	*staff4	*	*staff3	*	*staff2	*	*staff1	*
*Iempty	*	*Iviola	*	*Iviola	*	*Ivioln	*	*Ivioln	*	*Iempty	*	*Itenor	*	*Ialto	*	*Ivox	*	*Iempty	*	*Iempty	*	*Iclars	*	*Iclars	*	*Iflt	*	*Iflt	*
*I"Fundamento.	*	*I"Viola IIda	*	*I"Viola Ima	*	*I"Violino Secondo.	*	*I"Violino. Primo.	*	*I"Baſso.	*	*I"Tenore.	*	*I"Alto.	*	*I"Canto.	*	*I"Cornu Secondo in Dis.	*	*I"Cornu Primo in Dis	*	*I"Clarinetto Secondo in B.	*	*I"Clarinetto Primo in B.	*	*I"Flauto Secondo.	*	*I"Flauto Primo	*
*I'F.	*	*I'V-la II	*	*I'V-la I	*	*I'V-no II	*	*I'V-no I	*	*I'B.	*	*I'T.	*	*I'A.	*	*I'C.	*	*I'C. II	*	*I'C. I	*	*I'Cl. II	*	*I'Cl. I	*	*I'Fl. II	*	*I'Fl. I	*
*clefF4	*	*clefC3	*	*clefC3	*	*clefG2	*	*clefG2	*	*clefF4	*	*clefC4	*	*clefC3	*	*clefC1	*	*clefG2	*	*clefG2	*	*clefG2	*	*clefG2	*	*clefG2	*	*clefG2	*
*ITrd0c0	*	*	*	*	*	*	*	*	*	*	*	*	*	*	*	*	*	*ITrd5c9	*	*ITrd5c9	*	*ITrd1c2	*	*ITrd1c2	*	*	*	*	*
*k[b-e-a-]	*	*k[b-e-a-]	*	*k[b-e-a-]	*	*k[b-e-a-]	*	*k[b-e-a-]	*	*k[b-e-a-]	*	*k[b-e-a-]	*	*k[b-e-a-]	*	*k[b-e-a-]	*	*k[b-e-a-]	*	*k[b-e-a-]	*	*k[b-e-a-]	*	*k[b-e-a-]	*	*k[b-e-a-]	*	*k[b-e-a-]	*
*E-:	*	*E-:	*	*E-:	*	*E-:	*	*E-:	*	*E-:	*	*E-:	*	*E-:	*	*E-:	*	*E-:	*	*E-:	*	*E-:	*	*E-:	*	*E-:	*	*E-:	*
*M3/4	*	*M3/4	*	*M3/4	*	*M3/4	*	*M3/4	*	*M3/4	*	*M3/4	*	*M3/4	*	*M3/4	*	*M3/4	*	*M3/4	*	*M3/4	*	*M3/4	*	*M3/4	*	*M3/4	*
=1	=1	=1	=1	=1	=1	=1	=1	=1	=1	=1	=1	=1	=1	=1	=1	=1	=1	=1	=1	=1	=1	=1	=1	=1	=1	=1	=1	=1	=1
*	*	*	*	*	*	*	*	*	*below	*2\right	*	*	*	*	*	*	*	*	*	*	*	*2\right	*	*2\right	*	*	*	*	*
!	!	!	!	!	!	!	!	!	!	!	!	!	!	!	!	!	!	!LO:TX:a:t=1.	!	!LO:TX:a:t=1.	!	!	!	!	!	!	!	!	!
!LO:TX:a:i:t=Adagio	!LO:DY:t=po	!LO:TX:a:t=Adagio	!	!LO:TX:a:t=Adagio	!	!LO:TX:a:i:t=Adagio	!	!LO:TX:a:t=Adagio:problem=przekreślone Allo.	!	!	!	!LO:TX:a:i:t=Adagio	!	!LO:TX:a:i:t=Adagio	!	!LO:TX:a:t=Adagio	!	!LO:TX:a:i:t=Adagio	!	!LO:TX:a:i:t=Adagio	!	!LO:TX:a:t=Andte	!	!LO:TX:a:i:t=Andante	!	!LO:TX:a:i:t=Adagio	!LO:DY:t=po	!LO:TX:a:i:t=Adagio	!
!	!	!	!	!	!	!	!	!	!	!LO:TX:b:t=P:problem="D" przed kluczem	!	!LO:TX:b:t=P:problem="D" przed kluczem	!	!	!	!	!	!	!	!	!	!	!	!	!	!	!	!	!
!LO:TX:a:t=P:problem=4,8,16 middle or right&colon; global	!	!LO:TX:a:t=P:problem=4,8,16 middle or right&colon; global	!	!LO:TX:a:t=P:problem=4,8,16 middle or right&colon; global	!	!LO:TX:a:t=P:problem=4,8,16 middle or right&colon; global	!	!LO:TX:a:t=P:problem=4,8,16 middle or right&colon; global	!	!LO:TX:a:t=P:problem=4,8,16 middle or right&colon; global	!	!LO:TX:a:t=P:problem=4,8,16 middle or right&colon; global	!	!LO:TX:a:t=P:problem=4,8,16 middle or right&colon; global	!	!LO:TX:a:t=P:problem=4,8,16 middle or right&colon; global	!	!LO:TX:a:t=P:problem=4,8,16 middle or right&colon; global	!	!LO:TX:a:t=P:problem=4,8,16 middle or right&colon; global	!	!LO:TX:a:t=P:problem=4,8,16 middle or right&colon; global	!	!LO:TX:a:t=P:problem=4,8,16 middle or right&colon; global	!	!LO:TX:a:t=P:problem=4,8,16 middle or right&colon; global	!	!LO:TX:a:t=P:problem=4,8,16 middle or right&colon; global	!
!LO:TX:a:t=P:problem=bemol a- oltawę wyżej	!	!	!	!LO:TX:a:t=P:problem=kolejność znaków a- e- b-	!	!	!	!LO:TX:b:t=P:problem=w tym głosie dynamika wpisana czerwonym kolorem	!	!LO:TX:a:t=P:problem=kolejność znaków a- b- e-, a- oktawę wyżej	!	!LO:TX:a:t=P:problem=kolejność znaków a- e- b-	!	!LO:TX:a:t=P:problem=kolejność znaków a- e- b-	!	!LO:TX:a:t=P:problem=kolejność znaków e- a- b-	!	!	!	!	!	!	!	!	!	!	!	!	!
8E-\L	p	(4e-\	p	4e-\	p	2.e-/	p	2.e-/	p	2E-\	[D]i-	2G/	[D]i-	4r	.	4r	.	2.r	.	2.r	.	2.ee-\	.	2.ee-\	p	(4ee-\	p	4eee-\	p
8E-\	.	.	.	.	.	.	.	.	.	.	.	.	.	.	.	.	.	.	.	.	.	.	.	.	.	.	.	.	.
!	!	!	!	!	!	!	!	!	!	!	!	!	!	!LO:TX:b:t=P:problem="D" przed kluczem	!	!LO:TX:b:t=P:problem="D" przed kluczem	!	!	!	!	!	!	!	!	!	!	!	!	!
8E-\	.	4e-\	.	4e-\	.	.	.	.	.	.	.	.	.	4e-\	[D]i-	4e-/	[D]i-	.	.	.	.	.	.	.	.	4ee-\	.	4eee-\	.
8E-\	.	.	.	.	.	.	.	.	.	.	.	.	.	.	.	.	.	.	.	.	.	.	.	.	.	.	.	.	.
8E-\	.	4e-\)	.	4e-\	.	.	.	.	.	4E-\	-es	4G/	-es	4e-\	-es	4e-/	-es	.	.	.	.	.	.	.	.	4ee-\)	.	4eee-\	.
8E-\J	.	.	.	.	.	.	.	.	.	.	.	.	.	.	.	.	.	.	.	.	.	.	.	.	.	.	.	.	.
=2	=2	=2	=2	=2	=2	=2	=2	=2	=2	=2	=2	=2	=2	=2	=2	=2	=2	=2	=2	=2	=2	=2	=2	=2	=2	=2	=2	=2	=2
*	*	*2\right	*	*2\right	*	*	*	*	*	*	*	*	*	*2\right	*	*2\right	*	*2\right	*	*2\right	*	*	*	*	*	*2\right	*	*2\right	*
!	!LO:DY:t=fr&colon;	!	!	!	!	!	!LO:DY:t=fr&colon;	!	!LO:DY:t=fr&colon;	!	!	!	!	!	!	!	!	!	!	!	!	!	!LO:DY:rj	!	!	!	!	!	!
8E-\L	f	2.e-\	f	2.e-\	f	2.d/	f	2.a-/	f	2.E-\	I-	2.F/	i-	2.d\	i-	2.a-\	I-	2.f\	.	2.a-\	.	2.dd\	p	2.aa-\	.	2.ee-\	f	2.eee-\	f
8E-\	.	.	.	.	.	.	.	.	.	.	.	.	.	.	.	.	.	.	.	.	.	.	.	.	.	.	.	.	.
8E-\	.	.	.	.	.	.	.	.	.	.	.	.	.	.	.	.	.	.	.	.	.	.	.	.	.	.	.	.	.
8E-\	.	.	.	.	.	.	.	.	.	.	.	.	.	.	.	.	.	.	.	.	.	.	.	.	.	.	.	.	.
8E-\	.	.	.	.	.	.	.	.	.	.	.	.	.	.	.	.	.	.	.	.	.	.	.	.	.	.	.	.	.
8E-\J	.	.	.	.	.	.	.	.	.	.	.	.	.	.	.	.	.	.	.	.	.	.	.	.	.	.	.	.	.
=3	=3	=3	=3	=3	=3	=3	=3	=3	=3	=3	=3	=3	=3	=3	=3	=3	=3	=3	=3	=3	=3	=3	=3	=3	=3	=3	=3	=3	=3
!	!	!	!	!	!	!	!	!	!	!	!	!	!	!	!	!	!	!	!	!	!	!	!	!	!	!	!LO:DY:t=po	!	!
8E-\L	p	(4e-\	p	(4e-\	p	2.e-/	p	2.g/	p	4E-\	-rae	4G/	-rae	4e-\	-rae	4g\	-rae	4e-\	.	4g\	.	2.ee-\	.	2.gg\	.	(4ee-\	p	(4eee-\	p
8E-\	.	.	.	.	.	.	.	.	.	.	.	.	.	.	.	.	.	.	.	.	.	.	.	.	.	.	.	.	.
8E-\	.	4e-\	.	4e-\	.	.	.	.	.	4E-\	di-	4B-\	di-	4e-\	di-	4g\	di-	4r	.	4r	.	.	.	.	.	4ee-\	.	4eee-\	.
8E-\	.	.	.	.	.	.	.	.	.	.	.	.	.	.	.	.	.	.	.	.	.	.	.	.	.	.	.	.	.
8E-\	.	4e-\)	.	4e-\)	.	.	.	.	.	4E-\	-es	4B-\	-es	4e-\	-es	4e-/	-es	4r	.	4r	.	.	.	.	.	4ee-\)	.	4eee-\)	.
8E-\J	.	.	.	.	.	.	.	.	.	.	.	.	.	.	.	.	.	.	.	.	.	.	.	.	.	.	.	.	.
=4	=4	=4	=4	=4	=4	=4	=4	=4	=4	=4	=4	=4	=4	=4	=4	=4	=4	=4	=4	=4	=4	=4	=4	=4	=4	=4	=4	=4	=4
*	*	*	*	*	*	*	*	*2\right	*	*	*	*2\right	*	*	*	*	*	*	*	*	*	*	*	*	*	*	*	*	*
!	!LO:DY:t=fr&colon;	!	!LO:DY:t=fr&colon;	!	!LO:DY:t=fr&colon;	!	!LO:DY:t=fr&colon;	!	!LO:DY:t=fr	!	!	!	!	!	!	!	!	!	!	!	!	!	!	!	!	!	!LO:DY:t=f	!	!
8E-\L	f	2.e-\	f	2.e-\	f	2.a-/	f	2.cc\	f	2.E-\	il-	2.A-\	il-	2.e-\	il-	2.cc\	il-	2.a-\	.	2.cc\	.	2.a-/	.	2.cc\	.	2.ee-\	f	2.eee-\	f
8E-\	.	.	.	.	.	.	.	.	.	.	.	.	.	.	.	.	.	.	.	.	.	.	.	.	.	.	.	.	.
8E-\	.	.	.	.	.	.	.	.	.	.	.	.	.	.	.	.	.	.	.	.	.	.	.	.	.	.	.	.	.
8E-\	.	.	.	.	.	.	.	.	.	.	.	.	.	.	.	.	.	.	.	.	.	.	.	.	.	.	.	.	.
8E-\	.	.	.	.	.	.	.	.	.	.	.	.	.	.	.	.	.	.	.	.	.	.	.	.	.	.	.	.	.
8E-\J	.	.	.	.	.	.	.	.	.	.	.	.	.	.	.	.	.	.	.	.	.	.	.	.	.	.	.	.	.
=5	=5	=5	=5	=5	=5	=5	=5	=5	=5	=5	=5	=5	=5	=5	=5	=5	=5	=5	=5	=5	=5	=5	=5	=5	=5	=5	=5	=5	=5
4E-\	.	4e-\	.	4e-\	.	4g/	.	4b-\	.	4E-\	-la	4G/	-la	4e-\	-la	4b-\	-la	4g\	.	4b-\	.	(4g/	.	(4b-\	.	4ee-\	.	4eee-\	.
4r	.	4r	.	4r	.	(4cc\	.	(4ee-\	p	4r	.	4r	.	4cc\	Sol-	4ee-\	Sol-	4r	.	4r	.	4cc\	.	4ee-\	.	4r	.	4r	.
!	!	!	!	!	!	!	!LO:DY:t=po	!	!	!	!	!	!	!	!	!	!	!	!	!	!	!	!	!	!	!	!	!	!
4r	.	4r	.	4r	.	4b-\)	p	4dd\)	.	4r	.	4r	.	4b-\	-vet	4dd\	-vet	4r	.	4r	.	4b-\)	.	4dd\)	.	4r	.	4r	.
!LO:LB:g=original	!	!	!	!	!	!	!	!	!	!	!	!	!	!	!	!	!	!	!	!	!	!	!	!	!	!	!	!	!
=6	=6	=6	=6	=6	=6	=6	=6	=6	=6	=6	=6	=6	=6	=6	=6	=6	=6	=6	=6	=6	=6	=6	=6	=6	=6	=6	=6	=6	=6
!LO:TX:a:t=1.	!	!LO:TX:a:t=1.	!	!LO:TX:a:t=1.	!	!	!	!	!	!LO:TX:a:t=1.	!	!LO:TX:a:t=1.	!	!	!	!	!	!	!	!LO:TX:a:t=1.	!	!	!	!	!	!LO:TX:a:t=1.	!	!	!
2.r	.	2.r	.	2.r	.	4a-/	.	4cc\	.	2.r	.	2.r	.	(4a-\	Sae-	4cc\	.	2.r	.	2.r	.	(4a-/	.	4cc\	.	2.r	.	2.r	.
!	!	!	!	!	!	!	!	!	!	!	!	!	!	!	!	!LO:SIC:l:s=Sae-:v	!	!	!	!	!	!	!	!	!	!	!	!	!
.	.	.	.	.	.	4g/	.	(4b-\	.	.	.	.	.	4g\)	.	4b-\	Se-	.	.	.	.	4g/	.	(4b-\	.	.	.	.	.
.	.	.	.	.	.	4f/	.	4a-\)	.	.	.	.	.	4f\	-clum	4a-\	-clum	.	.	.	.	4f/)	.	4a-\)	.	.	.	.	.
!	!	!	!	!	!	!	!	!LO:LB:g=original	!	!LO:LB:g=original	!	!LO:LB:g=original	!	!LO:LB:g=original	!	!	!	!	!	!	!	!	!	!	!	!LO:LB:g=original	!	!LO:LB:g=original	!
=7	=7	=7	=7	=7	=7	=7	=7	=7	=7	=7	=7	=7	=7	=7	=7	=7	=7	=7	=7	=7	=7	=7	=7	=7	=7	=7	=7	=7	=7
!	!LO:DY:t=fr	!	!	!	!	!	!LO:DY:t=fr&colon;	!	!LO:DY:t=fr&colon;	!	!	!	!	!	!	!	!	!	!	!	!	!	!	!	!	!	!	!	!
4E-\	f	4e-\	.	4e-\	.	4e-/	f	4g/	f	(4E-\	in	(2B-\	in	(4e-\	in	(4g\	in	4e-\	.	4g\	.	4ee-\	.	4gg\	.	4ee-\	.	4eee-\	.
!	!	!	!	!	!	!	!	!	!	!	!	!	!	!	!	!	!	!	!	!	!	!	!LO:DY:t=for	!	!LO:DY:t=for	!	!	!	!
4D\	.	4d\	.	4d\	.	4f/	.	4a-/	.	4D\	.	.	.	4f\)	.	4a-\)	.	4f\	.	4a-\	.	4ff\	f	4aa-\	f	4dd\	.	4ddd\	.
4E-\	.	4e-\	.	4e-\	.	4e-/	.	4g/	.	4E-\)	fa-	4B-\)	fa-	4e-\	fa-	4g\	fa-	4e-\	.	4g\	.	4ee-\	.	4gg\	.	4ee-\	.	4eee-\	.
!	!	!	!	!	!	!LO:LB:g=original	!	!	!	!	!	!	!	!	!	!LO:LB:g=original	!	!	!	!	!	!	!	!	!	!	!	!	!
=8	=8	=8	=8	=8	=8	=8	=8	=8	=8	=8	=8	=8	=8	=8	=8	=8	=8	=8	=8	=8	=8	=8	=8	=8	=8	=8	=8	=8	=8
4BB-/	.	4B-/	.	4B-/	.	4e-/	.	4g/	.	4BB-/	-vi-	4B-\	-vil-	4e-\	-vil-	4g\	-vil-	4e-\	.	4g\	.	4ee-\	.	4gg\	.	4b-\	.	4bb-\	.
4B-\	.	4b-\	.	4b-\	.	4d/	.	4f/	.	4BB-/	-lla	4B-\	-la	4d\	-la	4f\	-la	4B-/	.	4f\	.	4dd\	.	4ff\	.	4bb-\	.	4bb-\	.
8G\L	.	8g\L	.	8g\L	.	4e-/	.	4g/	.	4r	.	4r	.	4r	.	4r	.	8e-\L	.	8g\L	.	4ee-\	.	8bb-\L	.	8gg\L	.	8gg\L	.
8E-\J	.	8e-\J	.	8e-\J	.	.	.	.	.	.	.	.	.	.	.	.	.	8e-\J	.	8g\J	.	.	.	8gg\J	.	8ee-\J	.	8ee-\J	.
!	!	!LO:LB:g=original	!	!LO:LB:g=original	!	!	!	!	!	!	!	!	!	!	!	!	!	!	!	!	!	!	!	!LO:LB:g=original	!	!	!	!	!
=9	=9	=9	=9	=9	=9	=9	=9	=9	=9	=9	=9	=9	=9	=9	=9	=9	=9	=9	=9	=9	=9	=9	=9	=9	=9	=9	=9	=9	=9
!	!	!	!	!	!	!	!	!	!	!LO:TX:a:t=1.	!	!LO:TX:a:t=1.	!	!	!	!	!	!	!	!	!	!	!	!	!	!	!	!	!
4BB-/	.	4B-/	.	4B-/	.	4d/	.	4f/	.	2.r	.	2.r	.	(4d\	Te-	4f\	Te-	4B-/	.	4f\	.	(4dd\	.	4ff\	.	4b-\	.	4bb-\	.
4r	.	4r	.	4r	.	(4f/	.	(4a-/	.	.	.	.	.	4f\)	.	(4a-\	.	4r	.	4r	.	4ff\	.	(4aa-\	.	4r	.	4r	.
4r	.	4r	.	4r	.	4g/)	.	4b-/)	.	.	.	.	.	4g\	-ste	4b-\)	-ste	4r	.	4r	.	4gg\)	.	4bb-\)	.	4r	.	4r	.
!	!	!	!	!	!	!	!	!	!	!	!	!	!	!	!	!	!	!	!	!	!	!LO:LB:g=original	!	!	!	!	!	!	!
=10	=10	=10	=10	=10	=10	=10	=10	=10	=10	=10	=10	=10	=10	=10	=10	=10	=10	=10	=10	=10	=10	=10	=10	=10	=10	=10	=10	=10	=10
*tremolo	*	*	*	*	*	*	*	*	*	*	*	*	*	*	*	*	*	*	*	*	*	*	*	*	*	*	*	*	*
!	!	!	!	!	!	!	!	!	!	!	!	!	!	!	!	!	!	!LO:TX:a:t=2	!	!LO:TX:a:t=2.	!	!	!	!	!	!	!	!	!
!	!	!	!	!	!	!	!	!	!	!	!	!	!	!	!	!	!	!LO:N:vis=0	!	!LO:N:vis=0	!	!	!	!	!	!	!	!	!
8AA-/L	.	2A-/	.	2A-/	.	4a-/	.	(4cc\	.	2AA-/	Da-	2c\	Da-	(4a-\	Da-	(4cc\	Da-	1.r	.	1.r	.	(4aa-\	.	(4ccc\	.	2aa-\	.	2aa-\	.
8AA-/	.	.	.	.	.	.	.	.	.	.	.	.	.	.	.	.	.	.	.	.	.	.	.	.	.	.	.	.	.
8AA-/	.	.	.	.	.	(4g/	.	4b-\	.	.	.	.	.	4g\)	.	4b-\)	.	.	.	.	.	4gg\	.	4bb-\	.	.	.	.	.
8AA-/J	.	.	.	.	.	.	.	.	.	.	.	.	.	.	.	.	.	.	.	.	.	.	.	.	.	.	.	.	.
*Xtremolo	*	*	*	*	*	*	*	*	*	*	*	*	*	*	*	*	*	*	*	*	*	*	*	*	*	*	*	*	*
8BB-/L	.	4B-/	.	4B-/	.	4f/)	.	4a-\)	.	4BB-/	-vid	4d\	-vid	4f\	-vid	4a-\	-vid	.	.	.	.	4ff\)	.	4aa-\)	.	4bb-\	.	4bb-\	.
8BB-/J	.	.	.	.	.	.	.	.	.	.	.	.	.	.	.	.	.	.	.	.	.	.	.	.	.	.	.	.	.
=11	=11	=11	=11	=11	=11	=11	=11	=11	=11	=11	=11	=11	=11	=11	=11	=11	=11	=11	=11	=11	=11	=11	=11	=11	=11	=11	=11	=11	=11
8C/L	.	8c/L	.	8c/L	.	8e-/L	.	8g/L	.	8C/	cum	8e-\	Cum	8e-\	Cum	8g\	cum	.	.	.	.	8ee-\L	.	8gg\L	.	8ccc\L	.	8ccc\L	.
8AA-/J	.	8A-/J	.	8A-/J	.	8f/J	.	8a-/J	.	8AA-/	Si-	8c\	si-	8f\	.	8a-\	.	.	.	.	.	8ff\J	.	8aa-\J	.	8aa-\J	.	8aa-\J	.
4BB-/	.	4B-/	.	4B-/	.	4e-/	.	4g/	.	2BB-/	-bil-	2B-\	-bil-	(4e-\	Si-	(4g\	Si-	.	.	.	.	4ee-\	.	4gg\	.	4bb-\	.	4bb-\	.
4BB-/	.	4B-/	.	4B-/	.	4d/	.	4f/	.	.	.	.	.	4d\)	-bil-	4f\)	-bil-	.	.	.	.	4dd\	.	4ff\	.	4bb-\	.	4bb-\	.
!	!	!	!	!	!	!	!	!	!	!	!	!	!	!	!	!	!	!LO:LB:g=original	!	!LO:LB:g=original	!	!	!	!	!	!	!	!	!
=12	=12	=12	=12	=12	=12	=12	=12	=12	=12	=12	=12	=12	=12	=12	=12	=12	=12	=12	=12	=12	=12	=12	=12	=12	=12	=12	=12	=12	=12
4EE-/	.	4E-/	.	4E-/	.	8r	.	8r	.	4EE-/	-la	4B-\	-la	4e-\	-la	4e-/	-la	8e-\	.	8g\	.	8ee-\	.	8ee-\	.	4ee-\	.	4eee-\	.
.	.	.	.	.	.	4a-/	.	4cc\	.	.	.	.	.	.	.	.	.	4a-\	.	4cc\	.	4aa-\	.	4ccc\	.	.	.	.	.
4EE-/	.	4r	.	4r	.	.	.	.	.	4r	.	4r	.	4r	.	4r	.	.	.	.	.	.	.	.	.	4r	.	4r	.
.	.	.	.	.	.	4g/	.	4b-\	.	.	.	.	.	.	.	.	.	4g\	.	4b-\	.	4gg\	.	4bb-\	.	.	.	.	.
4BB-/	.	4B-/	.	4B-/	.	.	.	.	.	4r	.	4r	.	4r	.	4r	.	.	.	.	.	.	.	.	.	4bb-\	.	4bb-\	.
.	.	.	.	.	.	8f/	.	8a-/	.	.	.	.	.	.	.	.	.	8f\	.	8a-\	.	8ff\	.	8aa-\	.	.	.	.	.
!	!	!	!	!	!	!	!	!	!	!LO:LB:g=original	!	!	!	!	!	!	!	!	!	!	!	!	!	!	!	!LO:LB:g=original	!	!	!
=13	=13	=13	=13	=13	=13	=13	=13	=13	=13	=13	=13	=13	=13	=13	=13	=13	=13	=13	=13	=13	=13	=13	=13	=13	=13	=13	=13	=13	=13
!	!	!	!	!	!	!	!	!	!	!	!	!LO:TX:a:t=2	!	!LO:TX:a:t=2	!	!	!	!	!	!	!	!	!	!	!	!	!	!	!
!	!	!	!	!	!	!	!	!	!	!LO:N:vis=0	!	!LO:N:vis=0	!	!LO:N:vis=0	!	!LO:N:vis=0	!	!	!	!	!	!	!	!	!	!	!	!	!
4E-\	.	4e-\	.	4e-\	.	8.e-/L	.	8.g/L	.	1.r	.	1.r	.	1.r	.	1.r	.	8.e-\L	.	8.g\L	.	8.ee-\L	.	8.gg\L	.	4ee-\	.	4ccc\	.
.	.	.	.	.	.	16f/Jk	.	16a-/Jk	.	.	.	.	.	.	.	.	.	16f\Jk	.	16a-\Jk	.	16ff\Jk	.	16aa-\Jk	.	.	.	.	.
4B-\	.	4B-/	.	4B-/	.	4e-/	.	4g/	.	.	.	.	.	.	.	.	.	4e-\	.	4g\	.	4ee-\	.	4gg\	.	4bb-\	.	4bb-\	.
4BB-/	.	4b-\	.	4B-/	.	4d/	.	4f/	.	.	.	.	.	.	.	.	.	4B-/	.	4f\	.	4dd\	.	4ff\	.	4bb-\	.	4bb-\	.
!	!	!	!	!	!	!	!	!	!	!	!	!	!	!	!	!	!	!	!	!	!	!	!	!	!	!	!	!LO:SIC:znaczek wyglądający jak custos po kresce taktowej:v	!
!	!	!	!	!	!	!	!	!	!	!	!	!	!	!	!	!	!	!	!	!	!	!	!	!	!	!	!	!LO:TX:a:t=P:problem=wszystkie custos użyte jako łamanie pięciolinii	!
!LO:LB:g=original	!	!	!	!	!	!	!	!LO:LB:g=original	!	!	!	!	!	!	!	!	!	!	!	!	!	!	!	!	!	!	!	!LO:LB:g=original	!
=14	=14	=14	=14	=14	=14	=14	=14	=14	=14	=14	=14	=14	=14	=14	=14	=14	=14	=14	=14	=14	=14	=14	=14	=14	=14	=14	=14	=14	=14
8r	.	4e-\	.	4E-/	.	2e-/	.	2e-/	.	.	.	.	.	.	.	.	.	2G/	.	2e-\	.	2ee-\	.	2ee-\	.	4ee-\	.	4ee-\	.
8E-\L	.	.	.	.	.	.	.	.	.	.	.	.	.	.	.	.	.	.	.	.	.	.	.	.	.	.	.	.	.
8E-\	.	4r	.	4r	.	.	.	.	.	.	.	.	.	.	.	.	.	.	.	.	.	.	.	.	.	4r	.	4r	.
8E-\	.	.	.	.	.	.	.	.	.	.	.	.	.	.	.	.	.	.	.	.	.	.	.	.	.	.	.	.	.
8D-X\	.	4r	.	4r	.	4B-/	.	4r	.	.	.	.	.	.	.	.	.	4r	.	4r	.	4r	.	4r	.	4r	.	4r	.
8D-\J	.	.	.	.	.	.	.	.	.	.	.	.	.	.	.	.	.	.	.	.	.	.	.	.	.	.	.	.	.
!	!	!	!	!	!	!	!	!	!	!	!	!LO:LB:g=original	!	!LO:LB:g=original	!	!	!	!	!	!	!	!	!	!	!	!	!	!	!
=15	=15	=15	=15	=15	=15	=15	=15	=15	=15	=15	=15	=15	=15	=15	=15	=15	=15	=15	=15	=15	=15	=15	=15	=15	=15	=15	=15	=15	=15
*tremolo	*	*	*	*	*	*tremolo	*	*tremolo	*	*	*	*	*	*	*	*	*	*	*	*	*	*	*	*	*	*	*	*	*
!	!	!	!	!	!	!LO:TX:b:t=P:problem=sześć kropek pod nutą	!	!	!	!	!	!	!	!	!	!	!	!LO:TX:a:t=4.	!	!LO:TX:a:t=4.	!	!	!	!	!	!	!	!	!
!	!	!	!	!	!	!	!	!	!	!	!	!	!	!	!	!	!	!LO:N:vis=00	!	!LO:N:vis=00	!	!	!	!	!	!	!	!	!
8C/L	.	2.c\	.	2.c/	.	8B-'/L	.	8en/L	.	2C/	Quan-	2B-\	Quan-	2en\	Quan-	2en/	Quan-	0.r	.	0.r	.	2.b-\	.	2.eeX\	.	2.aa-\	.	2.ccc\	.
8C/	.	.	.	.	.	8B-'/	.	8e	.	.	.	.	.	.	.	.	.	.	.	.	.	.	.	.	.	.	.	.	.
8C/	.	.	.	.	.	8B-'/	.	8e	.	.	.	.	.	.	.	.	.	.	.	.	.	.	.	.	.	.	.	.	.
8C/	.	.	.	.	.	8B-'/	.	8e	.	.	.	.	.	.	.	.	.	.	.	.	.	.	.	.	.	.	.	.	.
8C/	.	.	.	.	.	8B-'/	.	8e	.	4C/	-tus	4B-\	-tus	4e\	-tus	4e/	-tus	.	.	.	.	.	.	.	.	.	.	.	.
8C/J	.	.	.	.	.	8B-'/J	.	8eJ	.	.	.	.	.	.	.	.	.	.	.	.	.	.	.	.	.	.	.	.	.
*	*	*	*	*	*	*Xtremolo	*	*	*	*	*	*	*	*	*	*	*	*	*	*	*	*	*	*	*	*	*	*	*
!	!	!	!	!	!	!LO:LB:g=original	!	!	!	!	!	!	!	!	!	!	!	!	!	!	!	!	!	!	!	!	!	!	!
=16	=16	=16	=16	=16	=16	=16	=16	=16	=16	=16	=16	=16	=16	=16	=16	=16	=16	=16	=16	=16	=16	=16	=16	=16	=16	=16	=16	=16	=16
8FF/L	.	2F/	.	2F/	.	8A-/L	.	8f/L	.	2F\	Tre-	2A-\	tre-	2f\	tre-	(4f/	tre-	.	.	.	.	2a-\	.	(4ff\	.	2ff\	.	2ff\	.
8FF/	.	.	.	.	.	8c/	.	8f/	.	.	.	.	.	.	.	.	.	.	.	.	.	.	.	.	.	.	.	.	.
8FF/	.	.	.	.	.	8c/	.	8f/	.	.	.	.	.	.	.	4a-\)	.	.	.	.	.	.	.	4aa-\	.	.	.	.	.
8FF/J	.	.	.	.	.	8c/	.	8f/	.	.	.	.	.	.	.	.	.	.	.	.	.	.	.	.	.	.	.	.	.
*Xtremolo	*	*	*	*	*	*	*	*	*	*	*	*	*	*	*	*	*	*	*	*	*	*	*	*	*	*	*	*	*
8AA-/L	.	4A-/	.	4A-/	.	8c/	.	8f/	.	4AA-/	-mor	4A-\	-mor	4f\	-mor	4cc\	-mor	.	.	.	.	4ff\	.	4ccc\)	.	4aa-\	.	4aa-\	.
8AA-/J	.	.	.	.	.	8c/J	.	8f/J	.	.	.	.	.	.	.	.	.	.	.	.	.	.	.	.	.	.	.	.	.
*	*	*	*	*	*	*	*	*Xtremolo	*	*	*	*	*	*	*	*	*	*	*	*	*	*	*	*	*	*	*	*	*
!	!	!	!	!	!	!	!	!	!	!	!	!	!	!	!	!LO:LB:g=original	!	!	!	!	!	!	!	!LO:LB:g=original	!	!	!	!	!
=17	=17	=17	=17	=17	=17	=17	=17	=17	=17	=17	=17	=17	=17	=17	=17	=17	=17	=17	=17	=17	=17	=17	=17	=17	=17	=17	=17	=17	=17
8BB-/L	.	4B-/	.	4B-/	.	8d-X/L	.	8g/L	.	4BB-/	est	4d-X\	est	4g\	est	(4b-\	est	.	.	.	.	4gg\	.	4bb-\	.	4bb-\	.	4bb-\	.
8BB-/	.	.	.	.	.	8d-/	.	8g/	.	.	.	.	.	.	.	.	.	.	.	.	.	.	.	.	.	.	.	.	.
8C/	.	4c/	.	4c/	.	8c/	.	8f/	.	2C/	fu-	2c\	fu-	4f\	.	4a-\)	.	.	.	.	.	4ff\	.	4aa-\	.	4ccc\	.	4ccc\	.
8C/J	.	.	.	.	.	8c/	.	8f/	.	.	.	.	.	.	.	.	.	.	.	.	.	.	.	.	.	.	.	.	.
8CC/L	.	4C/	.	4C/	.	8c/	.	8en/	.	.	.	.	.	4en\	fu-	4g\	fu-	.	.	.	.	4ee-\	.	4gg\	.	4ccc\	.	4ccc\	.
8CC/J	.	.	.	.	.	8c/J	.	8e/J	.	.	.	.	.	.	.	.	.	.	.	.	.	.	.	.	.	.	.	.	.
=18	=18	=18	=18	=18	=18	=18	=18	=18	=18	=18	=18	=18	=18	=18	=18	=18	=18	=18	=18	=18	=18	=18	=18	=18	=18	=18	=18	=18	=18
8FF/L	.	4F/	.	4F/	.	4c/	.	8f/L	.	4F\	-tu-	4B-\	-tu-	4f\	-tu-	4a-\	-tu-	.	.	.	.	4ff\	.	4aa-\	.	4ff\	.	4fff\	.
8FF/	.	.	.	.	.	.	.	8f/	.	.	.	.	.	.	.	.	.	.	.	.	.	.	.	.	.	.	.	.	.
8AA-/	.	4A-/	.	4A-/	.	8c/L	.	8f/	.	4F\	-rus	4c\	-rus	4f\	-rus	4f/	-rus	.	.	.	.	4ee-\	.	4gg\	.	4aa-\	.	4aa-\	.
8AA-/	.	.	.	.	.	8c/	.	8f/	.	.	.	.	.	.	.	.	.	.	.	.	.	.	.	.	.	.	.	.	.
8FF/	.	4F/	.	4F/	.	8A-/	.	8e-/	.	4r	.	4r	.	4r	.	4r	.	.	.	.	.	4r	.	4r	.	4ff\	.	4ff\	.
8FF/J	.	.	.	.	.	8A-/J	.	8e-/J	.	.	.	.	.	.	.	.	.	.	.	.	.	.	.	.	.	.	.	.	.
!	!	!LO:LB:g=original	!	!LO:LB:g=original	!	!	!	!	!	!	!	!	!	!	!	!	!	!	!	!	!	!LO:LB:g=original	!	!	!	!	!	!	!
=19	=19	=19	=19	=19	=19	=19	=19	=19	=19	=19	=19	=19	=19	=19	=19	=19	=19	=19	=19	=19	=19	=19	=19	=19	=19	=19	=19	=19	=19
*tremolo	*	*	*	*	*	*	*	*tremolo	*	*	*	*	*	*	*	*	*	*	*	*	*	*	*	*	*	*	*	*	*
8BB-/L	.	2.B-/	.	2.B-/	.	8A-/L	.	8d/L	.	2BB-/	Quan-	2A-/	Quan-	2d\	Quan-	2d/	Quan-	4f\	.	4a-\	.	2.a-/	.	2.dd\	.	2.bb-\	.	2.bb-\	.
8BB-/	.	.	.	.	.	8A-/	.	8d/	.	.	.	.	.	.	.	.	.	.	.	.	.	.	.	.	.	.	.	.	.
8BB-/	.	.	.	.	.	8A-/	.	8d/	.	.	.	.	.	.	.	.	.	4r	.	4r	.	.	.	.	.	.	.	.	.
8BB-/	.	.	.	.	.	8A-/	.	8d/	.	.	.	.	.	.	.	.	.	.	.	.	.	.	.	.	.	.	.	.	.
8BB-/	.	.	.	.	.	8A-/	.	8d/	.	4BB-/	-do	4A-/	-do	4d\	-do	4d/	-do	4r	.	4r	.	.	.	.	.	.	.	.	.
8BB-/J	.	.	.	.	.	8A-/J	.	8d/J	.	.	.	.	.	.	.	.	.	.	.	.	.	.	.	.	.	.	.	.	.
=20	=20	=20	=20	=20	=20	=20	=20	=20	=20	=20	=20	=20	=20	=20	=20	=20	=20	=20	=20	=20	=20	=20	=20	=20	=20	=20	=20	=20	=20
8EE-/L	.	2.E-/	.	2E-/	.	8G/L	.	8e-/L	.	2E-\	Ju-	2G/	Ju-	2e-\	Ju-	(4e-/	Ju-	4e-\	.	4g\	.	4g/	.	(4ee-\	.	2.ee-\	.	2ee-\	.
8EE-/	.	.	.	.	.	8B-/	.	8e-/	.	.	.	.	.	.	.	.	.	.	.	.	.	.	.	.	.	.	.	.	.
8EE-/	.	.	.	.	.	8B-/	.	8e-/	.	.	.	.	.	.	.	4g\)	.	4r	.	4r	.	4ee-\	.	4gg\	.	.	.	.	.
8EE-/J	.	.	.	.	.	8B-/	.	8e-/	.	.	.	.	.	.	.	.	.	.	.	.	.	.	.	.	.	.	.	.	.
*Xtremolo	*	*	*	*	*	*	*	*	*	*	*	*	*	*	*	*	*	*	*	*	*	*	*	*	*	*	*	*	*
8GG/L	.	.	.	4G/	.	8B-/	.	8e-/	.	4GG/	-dex	4G/	-dex	4e-\	-dex	4b-\	-dex	4r	.	4r	.	4ee-\	.	4bb-\)	.	.	.	4gg\	.
8GG/J	.	.	.	.	.	8B-/J	.	8e-/J	.	.	.	.	.	.	.	.	.	.	.	.	.	.	.	.	.	.	.	.	.
*	*	*	*	*	*	*	*	*Xtremolo	*	*	*	*	*	*	*	*	*	*	*	*	*	*	*	*	*	*	*	*	*
!	!	!	!	!	!	!	!	!	!	!LO:LB:g=original	!	!	!	!	!	!	!	!	!	!	!	!	!	!	!	!LO:LB:g=original	!	!	!
=21	=21	=21	=21	=21	=21	=21	=21	=21	=21	=21	=21	=21	=21	=21	=21	=21	=21	=21	=21	=21	=21	=21	=21	=21	=21	=21	=21	=21	=21
8AA-/L	.	4A-/	.	4A-/	.	8c/L	.	8f/L	.	4AA-/	est	4c\	est	(4f\	est	(4a-\	est	4r	.	4r	.	4ff\	.	4bb-\	.	4aa-\	.	4aa-\	.
8AA-/	.	.	.	.	.	8c/	.	8f/	.	.	.	.	.	.	.	.	.	.	.	.	.	.	.	.	.	.	.	.	.
8BB-/	.	4b-\	.	4B-/	.	8B-/	.	8e-/	.	2BB-/	ven-	2B-\	ven-	4e-\)	.	4g\)	.	4r	.	4r	.	4ee-\	.	4gg\	.	4bb-\	.	4bb-\	.
8BB-/	.	.	.	.	.	8B-/	.	8e-/	.	.	.	.	.	.	.	.	.	.	.	.	.	.	.	.	.	.	.	.	.
8BBB-/	.	4B-/	.	4B-/	.	8B-/	.	8d/	.	.	.	.	.	4d\	ven-	4f\	ven-	4f\	.	4a-\	.	4dd\	.	4ff\	.	4bb-\	.	4bb-\	.
8BBB-/J	.	.	.	.	.	8B-/J	.	8d/J	.	.	.	.	.	.	.	.	.	.	.	.	.	.	.	.	.	.	.	.	.
!LO:LB:g=original	!	!	!	!	!	!LO:LB:g=original	!	!LO:LB:g=original	!	!	!	!LO:LB:g=original	!	!	!	!	!	!	!	!	!	!	!	!	!	!	!	!	!
=22	=22	=22	=22	=22	=22	=22	=22	=22	=22	=22	=22	=22	=22	=22	=22	=22	=22	=22	=22	=22	=22	=22	=22	=22	=22	=22	=22	=22	=22
!LO:TX:a:t=P:problem=mixed beam	!	!	!	!	!	!	!	!	!	!	!	!	!	!	!	!	!	!	!	!	!	!	!	!	!	!	!	!	!
8EE-/L	.	4E-/	.	4E-/	.	8B-/L	.	8e-/L	.	4E-\	-tu-	4B-\	-tu-	4e-\	-tu-	4g/	-tu-	4e-\	.	4g\	.	4ee-\	.	4gg\	.	4eee-\	.	4eee-\	.
8E-\	.	.	.	.	.	8g/	.	8b-/	.	.	.	.	.	.	.	.	.	.	.	.	.	.	.	.	.	.	.	.	.
8E-\	.	4r	.	4r	.	8g/	.	8b-/	.	4E-\	-rus	4B-\	-rus	4e-\	-rus	4e-/	-rus	4e-\	.	4g\	.	4r	.	4ee-\	.	4r	.	4r	.
8E-\	.	.	.	.	.	8g/	.	8b-/	.	.	.	.	.	.	.	.	.	.	.	.	.	.	.	.	.	.	.	.	.
8D\	.	4r	.	4r	.	8f/	.	8bn/	.	4r	.	4r	.	4r	.	4r	.	4r	.	4r	.	4r	.	4r	.	4r	.	4r	.
8D\J	.	.	.	.	.	8f/J	.	8b/J	.	.	.	.	.	.	.	.	.	.	.	.	.	.	.	.	.	.	.	.	.
!	!	!	!	!	!	!	!	!	!	!	!	!	!	!LO:LB:g=original	!	!	!	!	!	!	!	!	!	!	!	!	!	!LO:LB:g=original	!
=23	=23	=23	=23	=23	=23	=23	=23	=23	=23	=23	=23	=23	=23	=23	=23	=23	=23	=23	=23	=23	=23	=23	=23	=23	=23	=23	=23	=23	=23
!	!	!	!	!	!	!	!	!	!	!	!	!	!	!	!	!	!	!LO:TX:a:t=3	!	!LO:TX:a:t=3.	!	!	!	!	!	!	!	!	!
!	!	!	!	!	!	!	!	!	!LO:DY:t=fr&colon;	!	!	!	!	!	!	!	!	!LO:N:vis=0	!	!LO:N:vis=0	!	!	!	!	!	!	!	!	!
4C/	f	2c\	.	2c\	.	4e-/	f	4cc\	f	4r	.	4r	.	4r	.	4r	.	1.r	.	1.r	.	2cc\	.	2ee-\	.	2cc\	.	2ccc\	.
4C/	.	.	.	.	.	4cc\	.	4ee-\	.	4C/	Cun-	4e-\	Cun-	4g\	Cun-	4cc\	Cun-	.	.	.	.	.	.	.	.	.	.	.	.
4D/	.	4d\	.	4d\	.	8bn\L	.	4ff\	.	4D/	-cta	4d\	-cta	4f\	-cta	4bn\	-cta	.	.	.	.	8bX\L	.	4ff\	.	4dd\	.	4ddd\	.
.	.	.	.	.	.	8a-\J	.	.	.	.	.	.	.	.	.	.	.	.	.	.	.	8a-\J	.	.	.	.	.	.	.
!	!	!	!	!	!	!	!	!	!	!	!	!	!	!	!	!LO:LB:g=original	!	!	!	!	!	!	!	!	!	!	!	!	!
=24	=24	=24	=24	=24	=24	=24	=24	=24	=24	=24	=24	=24	=24	=24	=24	=24	=24	=24	=24	=24	=24	=24	=24	=24	=24	=24	=24	=24	=24
4E-/	.	4e-\	.	4e-\	.	4g/	.	4gg\	.	4E-/	Stri-	4c\	Stri-	(4g\	Stri-	4cc\	Stric-	.	.	.	.	4g/	.	4gg\	.	4ee-\	.	4eee-\	.
4D/	.	4d\	.	4d\	.	8a-/L	.	4ff\	.	4D/	.	4d\	.	4f\)	.	4bn\	.	.	.	.	.	4bX\	.	4ff\	.	4dd\	.	4ddd\	.
.	.	.	.	.	.	8bn/J	.	.	.	.	.	.	.	.	.	.	.	.	.	.	.	.	.	.	.	.	.	.	.
4C/	.	4c\	.	4c\	.	4cc\	.	4ee-\	.	4C/	-cte	4e-\	-cte	4g\	-cte	4cc\	-te	.	.	.	.	4cc\	.	4ee-\	.	4cc\	.	4ccc\	.
=25	=25	=25	=25	=25	=25	=25	=25	=25	=25	=25	=25	=25	=25	=25	=25	=25	=25	=25	=25	=25	=25	=25	=25	=25	=25	=25	=25	=25	=25
4F\	.	4f\	.	4f\	.	4dd\	.	4ff\	.	4F\	di-	4d\	dis-	4f\	dis-	4a-\	di-	2.r	.	2.r	.	4dd\	.	4ff\	.	4ff\	.	4fff\	.
!	!	!	!	!	!	!	!	!	!	!LO:TX:a:t=||:problem=znaczek najprawdopodobniej oznaczający podział nuty pół ze względu na słowa	!	!	!	!	!	!LO:TX:a:t=||:problem=znaczek najprawdopodobniej oznaczający podział nuty pół ze względu na słowa	!	!	!	!	!	!	!	!	!	!	!	!	!
4G\	.	4g\	.	4g\	.	4cc\	.	4ee-\	.	2G\	-scusu-	(4c\	-cu-	(4e-\	-cu-	2g\	-scusu-	.	.	.	.	4cc\	.	4ee-\	.	4gg\	.	4ggg\	.
4GG/	.	4G/	.	4G/	.	4bn\	.	4dd\	.	.	.	4Bn\)	-su-	4d\)	-su-	.	.	.	.	.	.	4bX\	.	4dd\	.	4gg\	.	4gg\	.
!	!	!	!	!	!	!	!	!	!	!	!	!	!	!	!	!	!	!	!	!LO:LB:g=original	!	!	!	!	!	!	!	!	!
=26	=26	=26	=26	=26	=26	=26	=26	=26	=26	=26	=26	=26	=26	=26	=26	=26	=26	=26	=26	=26	=26	=26	=26	=26	=26	=26	=26	=26	=26
*	*	*	*	*	*	*2\right	*	*	*	*	*	*	*	*	*	*	*	*	*	*	*	*	*	*	*	*	*	*	*
4C/	.	2c\	.	2c\	.	2cc\	.	2cc\	.	2C/	-rus	2B-\	-rus	2c\	-rus	2g\	-rus	8r	.	8r	.	2cc\	.	2cc\	.	2ccc\	.	2ccc\	.
.	.	.	.	.	.	.	.	.	.	.	.	.	.	.	.	.	.	16E-/LL	.	16E-/LL	.	.	.	.	.	.	.	.	.
.	.	.	.	.	.	.	.	.	.	.	.	.	.	.	.	.	.	16E-/JJ	.	16E-/JJ	.	.	.	.	.	.	.	.	.
4r	.	.	.	.	.	.	.	.	.	.	.	.	.	.	.	.	.	8E-/L	.	8E-/L	.	.	.	.	.	.	.	.	.
.	.	.	.	.	.	.	.	.	.	.	.	.	.	.	.	.	.	8E-/	.	8E-/	.	.	.	.	.	.	.	.	.
4r	.	4r	.	4r	.	4r	.	4r	.	4r	.	4r	.	4r	.	4r	.	8E-/	.	8E-/	.	4r	.	4r	.	4r	.	4r	.
.	.	.	.	.	.	.	.	.	.	.	.	.	.	.	.	.	.	8E-/J	.	8E-/J	.	.	.	.	.	.	.	.	.
!	!	!	!	!	!	!	!	!	!	!	!	!	!	!	!	!	!	!LO:LB:g=original	!	!	!	!	!	!	!	!	!	!	!
=27	=27	=27	=27	=27	=27	=27	=27	=27	=27	=27	=27	=27	=27	=27	=27	=27	=27	=27	=27	=27	=27	=27	=27	=27	=27	=27	=27	=27	=27
*	*	*	*	*	*	*	*	*tremolo	*	*	*	*	*	*	*	*	*	*	*	*	*	*	*	*	*	*	*	*	*
!	!	!	!	!	!	!	!	!	!	!	!	!	!	!	!	!LO:TX:a:t=4.	!	!	!	!	!	!LO:TX:a:t=8	!	!LO:TX:a:t=8.	!	!	!	!	!
!	!LO:DY:t=p	!	!	!	!LO:DY:t=p	!	!LO:DY:rj	!	!	!	!	!	!	!	!	!LO:N:vis=00	!	!	!	!	!	!LO:N:vis=00	!	!LO:N:vis=00	!	!	!	!	!
8r	p	2.A-/	p	2.A-/	p	8c/L	p	8e-/L	.	4r	.	4r	.	4r	.	0.r	.	4E-/	.	4E-/	.	0.r	.	0.r	.	2.aa-\	p	2.aa-\	p
8AA-/	.	.	.	.	.	8c/	.	8e-/	.	.	.	.	.	.	.	.	.	.	.	.	.	.	.	.	.	.	.	.	.
*tremolo	*	*	*	*	*	*	*	*	*	*	*	*	*	*	*	*	*	*	*	*	*	*	*	*	*	*	*	*	*
8AA-/L	.	.	.	.	.	8c/	.	8e-/	.	4A-\	Tu-	4B-\	Tu-	4e-\	Tu-	.	.	4r	.	4r	.	.	.	.	.	.	.	.	.
8AA-/	.	.	.	.	.	8c/	.	8e-/	.	.	.	.	.	.	.	.	.	.	.	.	.	.	.	.	.	.	.	.	.
8AA-/	.	.	.	.	.	8c/	.	8e-/	.	4A-\	-ba	4c\	-ba	4e-\	-ba	.	.	4r	.	4r	.	.	.	.	.	.	.	.	.
8AA-/J	.	.	.	.	.	8c/J	.	8e-/J	.	.	.	.	.	.	.	.	.	.	.	.	.	.	.	.	.	.	.	.	.
!	!	!	!	!	!	!LO:SIC:znaczek wyglądający jak custos po kresce taktowej:v	!	!	!	!	!	!	!	!	!	!	!	!	!	!	!	!	!	!	!	!	!	!	!
!	!	!	!	!	!	!LO:TX:a:t=P:problem=wszystkie custos użyte jako łamanie pięciolinii	!	!	!	!	!	!	!	!	!	!	!	!	!	!	!	!	!	!	!	!	!	!	!
!	!	!	!	!	!	!LO:LB:g=original	!	!	!	!LO:LB:g=original	!	!LO:LB:g=original	!	!	!	!	!	!	!	!	!	!	!	!	!	!	!	!	!
=28	=28	=28	=28	=28	=28	=28	=28	=28	=28	=28	=28	=28	=28	=28	=28	=28	=28	=28	=28	=28	=28	=28	=28	=28	=28	=28	=28	=28	=28
8GG/L	.	2.G/	.	2.G/	.	8B-/L	.	8e-/L	.	2G\	mi-	2B-\	mi-	2e-\	mi-	.	.	8r	.	8r	.	.	.	.	.	2.gg\	.	2.gg\	.
8GG/	.	.	.	.	.	8B-/	.	8e-/	.	.	.	.	.	.	.	.	.	16E-/LL	.	16E-/LL	.	.	.	.	.	.	.	.	.
.	.	.	.	.	.	.	.	.	.	.	.	.	.	.	.	.	.	16E-/JJ	.	16E-/JJ	.	.	.	.	.	.	.	.	.
8GG/	.	.	.	.	.	8B-/	.	8e-/	.	.	.	.	.	.	.	.	.	8E-/L	.	8E-/L	.	.	.	.	.	.	.	.	.
8GG/	.	.	.	.	.	8B-/	.	8e-/	.	.	.	.	.	.	.	.	.	8E-/	.	8E-/	.	.	.	.	.	.	.	.	.
8GG/	.	.	.	.	.	8B-/	.	8e-/	.	4G\	-rum	4B-\	-rum	4e-\	-rum	.	.	8E-/	.	8E-/	.	.	.	.	.	.	.	.	.
8GG/J	.	.	.	.	.	8B-/J	.	8e-/J	.	.	.	.	.	.	.	.	.	8BB-/J	.	8BB-/J	.	.	.	.	.	.	.	.	.
=29	=29	=29	=29	=29	=29	=29	=29	=29	=29	=29	=29	=29	=29	=29	=29	=29	=29	=29	=29	=29	=29	=29	=29	=29	=29	=29	=29	=29	=29
!	!	!	!	!	!	!	!	!	!	!	!	!	!	!	!	!	!	!LO:TX:a:t=1.	!	!LO:TX:a:t=1.	!	!	!	!	!	!	!	!	!
8AA-/L	.	2.A-/	.	2.A-/	.	8c/L	.	8e-/L	.	2A-\	spar-	2c\	Spar-	2e-\	Spar-	.	.	2.r	.	2.r	.	.	.	.	.	2.aa-\	.	2.aa-\	.
8AA-/	.	.	.	.	.	8c/	.	8e-/	.	.	.	.	.	.	.	.	.	.	.	.	.	.	.	.	.	.	.	.	.
8AA-/	.	.	.	.	.	8c/	.	8e-/	.	.	.	.	.	.	.	.	.	.	.	.	.	.	.	.	.	.	.	.	.
8AA-/	.	.	.	.	.	8c/	.	8e-/	.	.	.	.	.	.	.	.	.	.	.	.	.	.	.	.	.	.	.	.	.
8AA-/	.	.	.	.	.	8c/	.	8e-/	.	4A-\	-gens	4c\	-gens	4e-\	-gens	.	.	.	.	.	.	.	.	.	.	.	.	.	.
8AA-/J	.	.	.	.	.	8c/J	.	8e-/J	.	.	.	.	.	.	.	.	.	.	.	.	.	.	.	.	.	.	.	.	.
!	!	!LO:LB:g=original	!	!LO:LB:g=original	!	!	!	!LO:LB:g=original	!	!	!	!	!	!	!	!	!	!	!	!	!	!	!	!	!	!LO:LB:g=original	!	!	!
=30	=30	=30	=30	=30	=30	=30	=30	=30	=30	=30	=30	=30	=30	=30	=30	=30	=30	=30	=30	=30	=30	=30	=30	=30	=30	=30	=30	=30	=30
4EE-/	.	2E-/	.	2E-/	.	2B-/	.	2e-/	.	4E-\	so-	4B-\	so-	4e-\	so-	.	.	8r	.	8r	.	.	.	.	.	2ee-\	.	2ee-\	.
.	.	.	.	.	.	.	.	.	.	.	.	.	.	.	.	.	.	16E-/LL	.	16E-/LL	.	.	.	.	.	.	.	.	.
.	.	.	.	.	.	.	.	.	.	.	.	.	.	.	.	.	.	16E-/JJ	.	16E-/JJ	.	.	.	.	.	.	.	.	.
4r	.	.	.	.	.	.	.	.	.	4E-\	-num	4G\	-num	4e-\	-num	.	.	8E-/L	.	8E-/L	.	.	.	.	.	.	.	.	.
.	.	.	.	.	.	.	.	.	.	.	.	.	.	.	.	.	.	8E-/	.	8E-/	.	.	.	.	.	.	.	.	.
4r	.	4r	.	4r	.	4r	.	4r	.	4r	.	4r	.	4r	.	.	.	8E-/	.	8E-/	.	.	.	.	.	4r	.	4r	.
.	.	.	.	.	.	.	.	.	.	.	.	.	.	.	.	.	.	8E-/J	.	8E-/J	.	.	.	.	.	.	.	.	.
!	!	!	!	!	!	!	!	!	!	!	!	!	!	!LO:LB:g=original	!	!	!	!	!	!	!	!	!	!	!	!	!	!	!
=31	=31	=31	=31	=31	=31	=31	=31	=31	=31	=31	=31	=31	=31	=31	=31	=31	=31	=31	=31	=31	=31	=31	=31	=31	=31	=31	=31	=31	=31
!	!	!	!	!	!	!	!	!	!	!	!	!	!	!	!	!	!	!	!	!	!	!LO:N:vis=00	!	!LO:N:vis=00	!	!	!	!	!
8r	.	2.A-/	.	2.A-/	.	8c/L	.	8e-/L	.	4r	.	4r	.	4r	.	4r	.	4E-/	.	4E-/	.	0.r	.	0.r	.	2.aa-\	.	2.aa-\	.
8AA-/	.	.	.	.	.	8c/	.	8e-/	.	.	.	.	.	.	.	.	.	.	.	.	.	.	.	.	.	.	.	.	.
8AA-/L	.	.	.	.	.	8c/	.	8e-/	.	4A-\	per	4c\	per	4e-\	per	4e-/	per	4r	.	4r	.	.	.	.	.	.	.	.	.
8AA-/	.	.	.	.	.	8c/	.	8e-/	.	.	.	.	.	.	.	.	.	.	.	.	.	.	.	.	.	.	.	.	.
8AA-/	.	.	.	.	.	8c/	.	8e-/	.	4A-\	sae-	4c\	Sae-	4e-\	Sae-	4e-/	Sae-	4r	.	4r	.	.	.	.	.	.	.	.	.
8AA-/J	.	.	.	.	.	8c/J	.	8e-/J	.	.	.	.	.	.	.	.	.	.	.	.	.	.	.	.	.	.	.	.	.
!LO:LB:g=original	!	!	!	!	!	!	!	!	!	!	!	!	!	!	!	!	!	!	!	!	!	!	!	!	!	!	!	!	!
=32	=32	=32	=32	=32	=32	=32	=32	=32	=32	=32	=32	=32	=32	=32	=32	=32	=32	=32	=32	=32	=32	=32	=32	=32	=32	=32	=32	=32	=32
8GG/L	.	2.G/	.	2.G/	.	8B-/L	.	8e-/L	.	2G\	-pul-	2B-X\	-pul-	2e-\	-pul-	2e-/	-pul-	8r	.	8r	.	.	.	.	.	2.gg\	.	2.gg\	.
8GG/	.	.	.	.	.	8B-/	.	8e-/	.	.	.	.	.	.	.	.	.	16E-/LL	.	16E-/LL	.	.	.	.	.	.	.	.	.
.	.	.	.	.	.	.	.	.	.	.	.	.	.	.	.	.	.	16E-/JJ	.	16E-/JJ	.	.	.	.	.	.	.	.	.
8GG/	.	.	.	.	.	8B-/	.	8e-/	.	.	.	.	.	.	.	.	.	8E-/L	.	8E-/L	.	.	.	.	.	.	.	.	.
8GG/	.	.	.	.	.	8B-/	.	8e-/	.	.	.	.	.	.	.	.	.	8E-/	.	8E-/	.	.	.	.	.	.	.	.	.
!	!	!	!	!	!	!	!	!	!	!LO:SIC:l:s=chra:v	!	!LO:SIC:l:s=chra:v	!	!LO:SIC:l:s=chra:v	!	!LO:SIC:l:s=chra:v	!	!	!	!	!	!	!	!	!	!	!	!	!
8GG/	.	.	.	.	.	8B-/	.	8e-/	.	4G\	-hra	4B-\	-hra	4e-\	-hra	4e-/	-hra	8E-/	.	8E-/	.	.	.	.	.	.	.	.	.
8GG/J	.	.	.	.	.	8B-/J	.	8e-/J	.	.	.	.	.	.	.	.	.	8BB-/J	.	8BB-/J	.	.	.	.	.	.	.	.	.
*Xtremolo	*	*	*	*	*	*	*	*Xtremolo	*	*	*	*	*	*	*	*	*	*	*	*	*	*	*	*	*	*	*	*	*
!	!	!	!	!	!	!	!	!	!	!	!	!	!	!	!	!	!	!	!	!LO:LB:g=original	!	!	!	!	!	!	!	!LO:LB:g=original	!
=33	=33	=33	=33	=33	=33	=33	=33	=33	=33	=33	=33	=33	=33	=33	=33	=33	=33	=33	=33	=33	=33	=33	=33	=33	=33	=33	=33	=33	=33
!	!	!	!	!	!	!	!	!	!	!	!	!	!	!	!	!	!	!LO:TX:a:t=1.	!	!LO:TX:a:t=1.	!	!	!	!	!	!	!	!	!
8AA-/L	.	4A-/	.	4A-/	.	8c/L	.	8e-/L	.	4A-\	Re-	(4c\	Re-	(4e-\	Re-	4e-/	Re-	2.r	.	2.r	.	.	.	.	.	4aa-\	.	4aa-\	.
8AA-/	.	.	.	.	.	8c/	.	8e-/	.	.	.	.	.	.	.	.	.	.	.	.	.	.	.	.	.	.	.	.	.
8FF/	.	4F/	.	4F/	.	8d/	.	8f/	.	4F\	.	4A-\)	.	4d\)	.	4f/	.	.	.	.	.	.	.	.	.	4ff\	.	4ff\	.
8FF/	.	.	.	.	.	8d/	.	8f/	.	.	.	.	.	.	.	.	.	.	.	.	.	.	.	.	.	.	.	.	.
8EE-/	.	4E-/	.	4E-/	.	8e-/	.	8g/	.	4E-\	-gi-	4B-\	-gi-	4e-\	-gi-	4g/	-gi-	.	.	.	.	.	.	.	.	4ee-\	.	4ee-\	.
8EE-/J	.	.	.	.	.	8e-/J	.	8g/J	.	.	.	.	.	.	.	.	.	.	.	.	.	.	.	.	.	.	.	.	.
!	!	!	!	!	!	!	!	!	!	!	!	!LO:LB:g=original	!	!	!	!	!	!	!	!	!	!	!	!	!	!	!	!	!
=34	=34	=34	=34	=34	=34	=34	=34	=34	=34	=34	=34	=34	=34	=34	=34	=34	=34	=34	=34	=34	=34	=34	=34	=34	=34	=34	=34	=34	=34
4BB-/	.	4B-/	.	4B-/	.	4e-/	.	4g/	.	4B-\	-o-	4B-\	-o-	4e-\	-o-	4g/	-o-	8r	.	8r	.	.	.	.	.	4bb-\	.	4bb-\	.
.	.	.	.	.	.	.	.	.	.	.	.	.	.	.	.	.	.	16BB-/LL	.	16BB-/LL	.	.	.	.	.	.	.	.	.
.	.	.	.	.	.	.	.	.	.	.	.	.	.	.	.	.	.	16BB-/JJ	.	16BB-/JJ	.	.	.	.	.	.	.	.	.
4BB-/	.	4b-\	.	4B-/	.	4d/	.	4f/	.	4BB-/	-num	4B-\	-num	4d\	-num	4f/	-num	8BB-/L	.	8BB-/L	.	.	.	.	.	4b-/	.	4bb-\	.
.	.	.	.	.	.	.	.	.	.	.	.	.	.	.	.	.	.	8BB-/	.	8BB-/	.	.	.	.	.	.	.	.	.
4r	.	4r	.	4r	.	4r	.	4r	.	4r	.	4r	.	4r	.	4r	.	8BB-/	.	8BB-/	.	.	.	.	.	4r	.	4r	.
.	.	.	.	.	.	.	.	.	.	.	.	.	.	.	.	.	.	8E-/J	.	8E-/J	.	.	.	.	.	.	.	.	.
!	!	!	!	!	!	!LO:LB:g=original	!	!	!	!LO:LB:g=original	!	!	!	!	!	!	!	!LO:LB:g=original	!	!	!	!	!	!LO:LB:g=original	!	!	!	!	!
=35	=35	=35	=35	=35	=35	=35	=35	=35	=35	=35	=35	=35	=35	=35	=35	=35	=35	=35	=35	=35	=35	=35	=35	=35	=35	=35	=35	=35	=35
*2\right	*	*	*	*	*	*	*	*	*	*	*	*	*	*	*	*	*	*	*	*	*	*	*	*	*	*	*	*	*
*tremolo	*	*	*	*	*	*	*	*	*	*	*	*	*	*	*	*	*	*	*	*	*	*	*	*	*	*	*	*	*
!	!	!	!	!	!	!	!	!	!LO:DY:t=fo&colon;	!	!	!	!	!	!	!	!	!	!	!	!	!	!	!	!	!	!	!	!
8D\L	f	2.d\	f	2.d\	f	4a-/	f	4ff\	f	2D/	Co-	2B-\	Co-	2f\	Co-	2a-\	Co-	4BB-/	.	4BB-/	.	2.ff\	.	2.aa-\	.	2.dd\	f	2.dd\	f
8D\	.	.	.	.	.	.	.	.	.	.	.	.	.	.	.	.	.	.	.	.	.	.	.	.	.	.	.	.	.
8D\	.	.	.	.	.	4f/	.	4a-/	.	.	.	.	.	.	.	.	.	4f\	.	4a-\	.	.	.	.	.	.	.	.	.
8D\	.	.	.	.	.	.	.	.	.	.	.	.	.	.	.	.	.	.	.	.	.	.	.	.	.	.	.	.	.
8D\	.	.	.	.	.	4f/	.	4a-/	.	4D/	-get	4B-\	-get	4f\	-get	4a-\	-get	4f\	.	4a-\	.	.	.	.	.	.	.	.	.
8D\J	.	.	.	.	.	.	.	.	.	.	.	.	.	.	.	.	.	.	.	.	.	.	.	.	.	.	.	.	.
*Xtremolo	*	*	*	*	*	*	*	*	*	*	*	*	*	*	*	*	*	*	*	*	*	*	*	*	*	*	*	*	*
!	!	!	!	!	!	!	!	!	!	!	!	!	!	!	!	!LO:LB:g=original	!	!	!	!	!	!	!	!	!	!	!	!	!
=36	=36	=36	=36	=36	=36	=36	=36	=36	=36	=36	=36	=36	=36	=36	=36	=36	=36	=36	=36	=36	=36	=36	=36	=36	=36	=36	=36	=36	=36
4E-\	.	4e-\	.	4e-\	.	4e-/	.	4g/	.	4E-\	o-	(4B-\	o-	(4e-\	o-	4g/	O-	4e-\	.	4g\	.	4ee-\	.	4gg\	.	4ee-\	.	4ee-\	.
4F\	.	4f\	.	4f\	.	8d/L	.	4a-/	.	4F\	.	4A-\)	.	4d\)	.	4f/	.	4r	.	4a-\	.	8dd\L	.	4aa-\	.	4ff\	.	4ff\	.
.	.	.	.	.	.	8c/J	.	.	.	.	.	.	.	.	.	.	.	.	.	.	.	8cc\J	.	.	.	.	.	.	.
4G\	.	4g\	.	4g\	.	4B-/	.	4b-/	.	4G\	-mnes	4B-\	-mnes	4e-\	-mnes	4e-/	-mnes	4r	.	4b-\	.	4b-\	.	4bb-\	.	4gg\	.	4gg\	.
!	!	!	!	!	!	!	!	!	!	!	!	!	!	!	!	!	!	!	!	!	!	!LO:LB:g=original	!	!	!	!	!	!	!
=37	=37	=37	=37	=37	=37	=37	=37	=37	=37	=37	=37	=37	=37	=37	=37	=37	=37	=37	=37	=37	=37	=37	=37	=37	=37	=37	=37	=37	=37
4A-\	.	4a-\	.	4a-\	.	8a-/L	.	8cc/L	.	4A-\	an-	4c\	an-	4f\	an-	(4a-/	an-	4f\	.	4a-\	.	4ff\	.	8ccc\L	.	4aa-\	.	4aa-\	.
.	.	.	.	.	.	8f/J	.	8a-/J	.	.	.	.	.	.	.	.	.	.	.	.	.	.	.	8aa-\J	.	.	.	.	.
!	!	!	!	!	!	!	!	!	!	!	!	!LO:TX:a:t=||:problem=znaczek najprawdopodobniej oznaczający podział nuty pół ze względu na słowa	!	!	!	!	!	!	!	!	!	!	!	!	!	!	!	!	!
4B-\	.	4b-\	.	4b-\	.	4e-/	.	4g/	.	2B-\	-te thro-	2B-\	-te thro-	4e-\	-te	4g/	-te	4e-\	.	4g\	.	4ee-\	.	4gg\	.	4bb-\	.	4bb-\	.
4BB-/	.	4B-/	.	4B-/	.	4d/	.	4f/	.	.	.	.	.	4d\	thro-	4f/)	thro-	8B-/L	.	4f\	.	4dd\	.	4ff\	.	4bb-\	.	4bb-\	.
.	.	.	.	.	.	.	.	.	.	.	.	.	.	.	.	.	.	8B-/J	.	.	.	.	.	.	.	.	.	.	.
!	!	!	!	!	!	!	!	!LO:LB:g=original	!	!	!	!	!	!LO:LB:g=original	!	!	!	!	!	!	!	!	!	!	!	!LO:LB:g=original	!	!	!
=38	=38	=38	=38	=38	=38	=38	=38	=38	=38	=38	=38	=38	=38	=38	=38	=38	=38	=38	=38	=38	=38	=38	=38	=38	=38	=38	=38	=38	=38
4E-\	.	4e-\	.	4e-\	.	4e-/	.	4e-/	.	2E-\	-num	2B-\	-num	2e-\	-num	2e-/	-num	4G/	.	4e-\	.	4ee-\	.	4ee-\	.	4ee-\	.	4eee-\	.
4r	.	4r	.	4r	.	4ee-'\	.	4gg'\	.	.	.	.	.	.	.	.	.	4e-\	.	4g\	.	4r	.	4gg\	.	4r	.	4r	.
4E-\	.	4r	.	4r	.	4gg'\	.	4bb-'\	.	4r	.	4r	.	4r	.	4r	.	4g\	.	4b-\	.	4gg\	.	4bb-\	.	4r	.	4r	.
=39	=39	=39	=39	=39	=39	=39	=39	=39	=39	=39	=39	=39	=39	=39	=39	=39	=39	=39	=39	=39	=39	=39	=39	=39	=39	=39	=39	=39	=39
!	!	!	!	!	!	!	!	!	!	!	!	!LO:TX:a:t=10	!	!LO:TX:a:t=6	!	!LO:TX:a:t=6	!	!	!	!	!	!	!	!	!	!	!	!	!
!	!	!	!	!	!	!	!	!	!	!LO:N:vis=00	!	!LO:N:vis=00	!	!LO:N:vis=00	!	!LO:N:vis=00	!	!	!	!	!	!	!	!	!	!	!	!	!
2B-\	.	2b-\	.	2b-\	.	4B-/	.	4B-'>/	.	0.r	.	0.r	.	0.r	.	0.r	.	4g\	.	4b-\	.	4gg\	.	4bb-\	.	2bb-\	.	2bb-\	.
.	.	.	.	.	.	4dd`\	.	4ff'\	.	.	.	.	.	.	.	.	.	8f\L	.	8a-\L	.	8ff\L	.	8aa-\L	.	.	.	.	.
.	.	.	.	.	.	.	.	.	.	.	.	.	.	.	.	.	.	8e-\J	.	8g\J	.	8ee-\J	.	8gg\J	.	.	.	.	.
4BB-/	.	4B-/	.	4B-/	.	4ff`\	.	4aa-'\	.	.	.	.	.	.	.	.	.	4f\	.	4a-\	.	4ff\	.	4aa-\	.	4bb-\	.	4bb-\	.
!	!	!LO:LB:g=original	!	!	!	!	!	!	!	!	!	!	!	!	!	!	!	!	!	!	!	!	!	!	!	!	!	!	!
=40	=40	=40	=40	=40	=40	=40	=40	=40	=40	=40	=40	=40	=40	=40	=40	=40	=40	=40	=40	=40	=40	=40	=40	=40	=40	=40	=40	=40	=40
4E-\	.	2e-\	.	2e-\	.	4ee-`\	p	4gg'\	.	.	.	.	.	.	.	.	.	4e-\	.	4g\	.	4ee-\	.	4gg\	.	2ee-\	.	2eee-\	.
4r	.	.	.	.	.	4e-`/	.	4g/	p	.	.	.	.	.	.	.	.	(4e-\	.	(4g\	.	4ee-\	.	4gg\	.	.	.	.	.
!	!LO:DY:t=po	!	!	!	!	!	!	!	!	!	!	!	!	!	!	!	!	!	!	!	!	!	!	!	!	!	!	!	!
4E-\	p	4r	.	4r	.	4g`/	.	4b-/	.	.	.	.	.	.	.	.	.	[<4g\)	.	[<4b-\)	.	4gg\	.	[<4bb-\	.	4r	.	4r	.
!LO:LB:g=original	!	!	!	!LO:LB:g=original	!	!	!	!	!	!	!	!	!	!	!	!	!	!	!	!LO:LB:g=original	!	!	!	!	!	!	!	!	!
=41	=41	=41	=41	=41	=41	=41	=41	=41	=41	=41	=41	=41	=41	=41	=41	=41	=41	=41	=41	=41	=41	=41	=41	=41	=41	=41	=41	=41	=41
!	!	!LO:TX:a:t=1.	!	!LO:TX:a:t=1.	!	!	!	!	!	!	!	!	!	!	!	!	!	!	!	!	!	!	!	!	!	!LO:TX:a:t=1.	!	!LO:TX:a:t=1.	!
2B-\	.	2.r	.	2.r	.	4B-/	.	4B-/	.	.	.	.	.	.	.	.	.	4g\]	.	4b-\]	.	4gg\	.	4bb-\]	.	2.r	.	2.r	.
.	.	.	.	.	.	4d/	.	4f/	.	.	.	.	.	.	.	.	.	8f\L	.	8a-\L	.	8ff\L	.	8aa-\L	.	.	.	.	.
.	.	.	.	.	.	.	.	.	.	.	.	.	.	.	.	.	.	8e-\J	.	8g\J	.	8ee-\J	.	8gg\J	.	.	.	.	.
4BB-/	.	.	.	.	.	4f/	.	4a-/	.	.	.	.	.	.	.	.	.	4f\	.	4a-\	.	4ff\	.	4aa-\	.	.	.	.	.
!	!	!	!	!	!	!	!	!	!	!	!	!	!	!	!	!	!	!	!	!	!	!	!	!	!	!	!	!LO:LB:g=original	!
=42	=42	=42	=42	=42	=42	=42	=42	=42	=42	=42	=42	=42	=42	=42	=42	=42	=42	=42	=42	=42	=42	=42	=42	=42	=42	=42	=42	=42	=42
!	!LO:DY:t=f	!	!	!	!	!	!	!	!	!	!	!	!	!	!	!	!	!	!	!	!	!	!	!	!	!	!	!	!
4E-\	f	4e-\	.	4e-\	.	4e-/	f	4g/	.	.	.	.	.	.	.	.	.	8e-\L	.	8g\L	.	8ee-\L	.	8gg\L	.	4ee-\	.	4eee-\	.
.	.	.	.	.	.	.	.	.	.	.	.	.	.	.	.	.	.	8g\J	.	8b-\J	.	8gg\J	.	8bb-\J	.	.	.	.	.
4D\	.	4d\	.	4d\	.	4ff\	.	4aa-\	.	.	.	.	.	.	.	.	.	4f\	.	4a-\	.	4ff\	.	4aa-\	.	4cc\	.	4ddd\	.
!	!	!	!	!	!	!	!	!	!LO:DY:t=fr&colon;	!	!	!	!	!	!	!	!	!	!	!	!	!	!	!	!	!	!	!	!
4E-\	.	4e-\	.	4e-\	.	4ee-\	.	4gg\	f	.	.	.	.	.	.	.	.	4e-\	.	4g\	.	4ee-\	.	4gg\	.	4ee-\	.	4eee-\	.
!	!	!	!	!	!	!LO:LB:g=original	!	!	!	!	!	!	!	!	!	!	!	!LO:LB:g=original	!	!	!	!	!	!LO:LB:g=original	!	!	!	!	!
=43	=43	=43	=43	=43	=43	=43	=43	=43	=43	=43	=43	=43	=43	=43	=43	=43	=43	=43	=43	=43	=43	=43	=43	=43	=43	=43	=43	=43	=43
!	!	!	!	!	!	!	!	!	!	!LO:N:vis=00	!	!LO:N:vis=00	!	!LO:N:vis=0	!	!LO:N:vis=0	!	!	!	!	!	!	!	!	!	!	!	!	!
4B-\	.	4B-/	.	4B-/	.	4ee-\	.	4gg\	.	0.r	.	0.r	.	1.r	.	1.r	.	4e-\	.	4g\	.	4ee-\	.	4gg\	.	4bb-\	.	4bb-\	.
4BB-/	.	4b-\	.	4B-/	.	4dd\	.	4ff\	.	.	.	.	.	.	.	.	.	4B-/	.	4f\	.	4dd\	.	4ff\	.	4bb-\	.	4bb-\	.
!	!LO:DY:t=p&colon;	!	!	!	!	!	!	!	!	!	!	!	!	!	!	!	!	!	!	!	!	!	!	!	!	!	!	!	!
4E-\	p	4r	.	4r	.	8g/L	p	8b-/L	.	.	.	.	.	.	.	.	.	4e-\	.	4g\	.	4ee-\	.	4gg\	.	4r	.	4r	.
.	.	.	.	.	.	8e-/J	.	8g/J	p	.	.	.	.	.	.	.	.	.	.	.	.	.	.	.	.	.	.	.	.
=44	=44	=44	=44	=44	=44	=44	=44	=44	=44	=44	=44	=44	=44	=44	=44	=44	=44	=44	=44	=44	=44	=44	=44	=44	=44	=44	=44	=44	=44
!	!	!LO:TX:a:t=1.	!	!LO:TX:a:t=1.	!	!	!	!	!	!	!	!	!	!	!	!	!	!	!	!	!	!	!	!	!	!	!	!LO:TX:a:t=1.	!
4BB-/	.	2.r	.	2.r	.	4e-/	.	4g/	.	.	.	.	.	.	.	.	.	4e-\	.	4g\	.	4ee-\	.	4gg\	.	2.r	.	2.r	.
4BB-/	.	.	.	.	.	8d/L	.	8f/L	.	.	.	.	.	.	.	.	.	4B-/	.	4f\	.	4dd\	.	4ff\	.	.	.	.	.
.	.	.	.	.	.	8c/	.	8e-/	.	.	.	.	.	.	.	.	.	.	.	.	.	.	.	.	.	.	.	.	.
4r	.	.	.	.	.	8d/	.	8f/	.	.	.	.	.	.	.	.	.	4r	.	4r	.	4r	.	4r	.	.	.	.	.
.	.	.	.	.	.	8e-/J	.	8g/J	.	.	.	.	.	.	.	.	.	.	.	.	.	.	.	.	.	.	.	.	.
!	!	!	!	!	!	!	!	!LO:LB:g=original	!	!	!	!	!	!	!	!	!	!	!	!	!	!LO:LB:g=original	!	!	!	!	!	!	!
=45	=45	=45	=45	=45	=45	=45	=45	=45	=45	=45	=45	=45	=45	=45	=45	=45	=45	=45	=45	=45	=45	=45	=45	=45	=45	=45	=45	=45	=45
*tremolo	*	*	*	*	*	*tremolo	*	*tremolo	*	*	*	*	*	*	*	*	*	*	*	*	*	*	*	*	*	*	*	*	*
!	!	!	!	!	!LO:DY:t=po&colon;	!	!	!	!	!	!	!	!	!	!	!	!	!	!	!	!	!	!	!	!	!	!LO:DY:t=po	!	!
8BB-/L	.	4f\	p	4a-\	p	8f/L	.	8a-/L	.	.	.	.	.	4f\	Mors	4a-\	Mors	4r	.	4r	.	4ff\	.	4aa-\	.	4ff\	p	4aa-\	p
8BB-/	.	.	.	.	.	8f/	.	8a-/	.	.	.	.	.	.	.	.	.	.	.	.	.	.	.	.	.	.	.	.	.
.	.	.	.	.	.	.	.	.	.	.	.	.	.	8qe-/	.	8qg/	.	.	.	.	.	.	.	.	.	.	.	.	.
8BB-/	.	2dt\	.	2f\	.	8f/	.	8a-/	.	.	.	.	.	2d\	stu-	2f/	Stu-	4B-/	.	4B-/	.	2dd\	.	2ff\	.	2dd\	.	2ff\	.
8BB-/	.	.	.	.	.	8f/	.	8a-/	.	.	.	.	.	.	.	.	.	.	.	.	.	.	.	.	.	.	.	.	.
8BB-/	.	.	.	.	.	8f/	.	8a-/	.	.	.	.	.	.	.	.	.	4B-/	.	4B-/	.	.	.	.	.	.	.	.	.
8BB-/J	.	.	.	.	.	8f/J	.	8a-/J	.	.	.	.	.	.	.	.	.	.	.	.	.	.	.	.	.	.	.	.	.
!	!	!	!	!	!	!	!	!	!	!	!	!	!	!	!	!	!	!	!	!	!	!	!	!	!	!LO:LB:g=original	!	!	!
=46	=46	=46	=46	=46	=46	=46	=46	=46	=46	=46	=46	=46	=46	=46	=46	=46	=46	=46	=46	=46	=46	=46	=46	=46	=46	=46	=46	=46	=46
4E-\	.	4.e-\	.	4.g\	.	4.e-/	.	4.g/	.	.	.	.	.	(4.e-\	-pe-	(4.g\	-pe-	4.B-/	.	4.B-/	.	4.ee-\	.	4.gg\	.	4.ee-\	.	4.gg\	.
4EE-/	.	.	.	.	.	.	.	.	.	.	.	.	.	.	.	.	.	.	.	.	.	.	.	.	.	.	.	.	.
.	.	8f\	.	8a-\	.	8f/	.	8a-/	.	.	.	.	.	8f\	.	8a-\	.	8B-/L	.	8B-/L	.	8ff\	.	8aa-\	.	8ff\	.	8aa-\	.
4r	.	4g\	.	4b-\	.	4g/	.	4b-/	.	.	.	.	.	4g\)	-bit	4b-\)	-bit	8G/	.	8G/	.	4gg\	.	4bb-\	.	4gg\	.	4bb-\	.
.	.	.	.	.	.	.	.	.	.	.	.	.	.	.	.	.	.	8E-/J	.	8E-/J	.	.	.	.	.	.	.	.	.
=47	=47	=47	=47	=47	=47	=47	=47	=47	=47	=47	=47	=47	=47	=47	=47	=47	=47	=47	=47	=47	=47	=47	=47	=47	=47	=47	=47	=47	=47
!	!	!	!	!	!	!	!	!	!	!LO:N:vis=0	!	!LO:N:vis=0	!	!	!	!	!	!	!	!	!	!	!	!	!	!	!	!	!
8BB-/L	.	4f\	.	4a-\	.	8f/L	.	8a-/L	.	1.r	.	1.r	.	4f\	et	4a-\	et	4BB-/	.	4BB-/	.	4ff\	.	4aa-\	.	4ff\	.	4aa-\	.
8BB-/	.	.	.	.	.	8f/	.	8a-/	.	.	.	.	.	.	.	.	.	.	.	.	.	.	.	.	.	.	.	.	.
.	.	.	.	.	.	.	.	.	.	.	.	.	.	8qe-/	.	8qg/	.	.	.	.	.	.	.	.	.	.	.	.	.
8BB-/	.	2dt\	.	2f\	.	8f/	.	8a-/	.	.	.	.	.	2d\	na-	2f/	na-	4r	.	4r	.	2ddt\	.	2ff\	.	2ddt\	.	2ff\	.
8BB-/	.	.	.	.	.	8f/	.	8a-/	.	.	.	.	.	.	.	.	.	.	.	.	.	.	.	.	.	.	.	.	.
8BB-/	.	.	.	.	.	8f/	.	8a-/	.	.	.	.	.	.	.	.	.	4r	.	4r	.	.	.	.	.	.	.	.	.
8BB-/J	.	.	.	.	.	8f/J	.	8a-/J	.	.	.	.	.	.	.	.	.	.	.	.	.	.	.	.	.	.	.	.	.
!	!	!	!	!	!	!	!	!	!	!	!	!	!	!	!	!LO:PB:g=original	!	!	!	!	!	!	!	!	!	!	!	!	!
=48	=48	=48	=48	=48	=48	=48	=48	=48	=48	=48	=48	=48	=48	=48	=48	=48	=48	=48	=48	=48	=48	=48	=48	=48	=48	=48	=48	=48	=48
!	!	!	!	!	!	!	!	!	!	!	!	!	!	!	!	!	!	!	!	!	!LO:DY:t=po	!	!	!	!	!	!	!	!
4E-\	.	2e-\	.	4g\	.	4e-/	.	4g/	.	.	.	.	.	4e-\	-tu-	4g/	-tu-	4r	.	4r	p	4ee-\	.	4gg\	.	2ee-\	.	4gg\	.
4EE-/	.	.	.	4e-\	.	(8e-/L	.	(8g/L	.	.	.	.	.	4B-/	-ra	4e-/	-ra	4e-\	.	4e-\	.	4b-\	.	4ee-\	.	.	.	4ee-\	.
.	.	.	.	.	.	8f/	.	8a-/	.	.	.	.	.	.	.	.	.	.	.	.	.	.	.	.	.	.	.	.	.
4r	.	4r	.	4r	.	8g/	.	8b-/	.	.	.	.	.	4r	.	4r	.	4e-\	.	4e-\	.	8g/L	.	(8b-\L	.	4r	.	4r	.
!	!	!	!	!	!	!	!	!	!	!	!	!	!	!	!	!	!	!	!	!	!	!	!	!	!LO:DY:t=p	!	!	!	!
.	.	.	.	.	.	8a-/J)	.	8cc/J)	.	.	.	.	.	.	.	.	.	.	.	.	.	8a-/J	.	8cc\J)	p	.	.	.	.
!	!	!	!	!	!	!	!	!	!	!	!	!	!	!	!	!	!	!	!	!LO:LB:g=original	!	!	!	!	!	!	!	!	!
=49	=49	=49	=49	=49	=49	=49	=49	=49	=49	=49	=49	=49	=49	=49	=49	=49	=49	=49	=49	=49	=49	=49	=49	=49	=49	=49	=49	=49	=49
!	!	!LO:TX:a:t=4.	!	!LO:TX:a:t=4	!	!	!	!	!	!	!	!	!	!LO:TX:a:t=4	!	!	!	!	!	!	!	!	!	!	!	!	!	!	!
!	!	!LO:N:vis=00	!	!LO:N:vis=00	!	!	!	!	!	!	!	!	!	!LO:N:vis=00	!	!LO:N:vis=00	!	!	!	!	!	!	!	!	!	!LO:N:vis=00	!	!LO:N:vis=00	!
8E-\L	.	0.r	.	0.r	.	8b-\L	.	8dd-\L	.	4B-\	Cum	4d-X\	Cum	0.r	.	0.r	.	2.e-\	.	2.e-\	.	4b-\	.	4dd-X\	.	0.r	.	0.r	.
8E-\	.	.	.	.	.	8b-\	.	8dd-\	.	.	.	.	.	.	.	.	.	.	.	.	.	.	.	.	.	.	.	.	.
.	.	.	.	.	.	.	.	.	.	8qA-/	.	8qc/	.	.	.	.	.	.	.	.	.	8qa-/	.	8qcc/	.	.	.	.	.
8E-\	.	.	.	.	.	8b-\	.	8dd-\	.	2G\	re-	2B-\	re-	.	.	.	.	.	.	.	.	2g/	.	2b-T\	.	.	.	.	.
8E-\	.	.	.	.	.	8b-\	.	8dd-\	.	.	.	.	.	.	.	.	.	.	.	.	.	.	.	.	.	.	.	.	.
8E-\	.	.	.	.	.	8b-\	.	8dd-\	.	.	.	.	.	.	.	.	.	.	.	.	.	.	.	.	.	.	.	.	.
8E-\J	.	.	.	.	.	8b-\J	.	8dd-\J	.	.	.	.	.	.	.	.	.	.	.	.	.	.	.	.	.	.	.	.	.
*	*	*	*	*	*	*Xtremolo	*	*	*	*	*	*	*	*	*	*	*	*	*	*	*	*	*	*	*	*	*	*	*
!	!	!	!	!	!	!	!	!	!	!	!	!LO:LB:g=original	!	!	!	!	!	!	!	!	!	!	!	!	!	!	!	!	!
=50	=50	=50	=50	=50	=50	=50	=50	=50	=50	=50	=50	=50	=50	=50	=50	=50	=50	=50	=50	=50	=50	=50	=50	=50	=50	=50	=50	=50	=50
!	!	!	!	!	!	!	!	!	!	!	!	!	!	!	!	!	!	!LO:TX:a:t=3.	!	!LO:TX:a:t=3	!	!	!	!	!	!	!	!	!
!	!	!	!	!	!	!	!	!	!	!	!	!	!	!	!	!	!	!LO:N:vis=0	!	!LO:N:vis=0	!	!	!	!	!	!	!	!	!
4AA-/	.	.	.	.	.	4.a-/	.	4.cc\	.	(4.A-\	-sur-	(4.c\	-sur-	.	.	.	.	1.r	.	1.r	.	4.a-\	.	4.cc\	.	.	.	.	.
4r	.	.	.	.	.	.	.	.	.	.	.	.	.	.	.	.	.	.	.	.	.	.	.	.	.	.	.	.	.
.	.	.	.	.	.	8b-/	.	8dd\	.	8B-\)	.	8d-X\	.	.	.	.	.	.	.	.	.	8b-\	.	8dd-X\	.	.	.	.	.
4r	.	.	.	.	.	4cc/	.	4ee-\	.	4c\	-get	4e-\)	-get	.	.	.	.	.	.	.	.	4cc\	.	4ee-\	.	.	.	.	.
!LO:LB:g=original	!	!	!	!	!	!LO:LB:g=original	!	!	!	!LO:LB:g=original	!	!	!	!	!	!	!	!	!	!	!	!	!	!	!	!	!	!	!
=51	=51	=51	=51	=51	=51	=51	=51	=51	=51	=51	=51	=51	=51	=51	=51	=51	=51	=51	=51	=51	=51	=51	=51	=51	=51	=51	=51	=51	=51
8E-\L	.	.	.	.	.	8b-\L	.	8dd-\L	.	4B-\	Cre-	4d-X\	Crae-	.	.	.	.	.	.	.	.	4b-\	.	4dd-X\	.	.	.	.	.
8E-\	.	.	.	.	.	8b-\	.	8dd-\	.	.	.	.	.	.	.	.	.	.	.	.	.	.	.	.	.	.	.	.	.
.	.	.	.	.	.	.	.	.	.	8qA-/	.	8qc/	.	.	.	.	.	.	.	.	.	8qa-/	.	8qcc/	.	.	.	.	.
8E-\	.	.	.	.	.	8b-\	.	8dd-\	.	2G\	-a-	2B-\	-a-	.	.	.	.	.	.	.	.	2g/	.	2b-T\	.	.	.	.	.
8E-\	.	.	.	.	.	8b-\	.	8dd-\	.	.	.	.	.	.	.	.	.	.	.	.	.	.	.	.	.	.	.	.	.
8E-\	.	.	.	.	.	8b-\	.	8dd-\	.	.	.	.	.	.	.	.	.	.	.	.	.	.	.	.	.	.	.	.	.
8E-\J	.	.	.	.	.	8b-\J	.	8dd-\J	.	.	.	.	.	.	.	.	.	.	.	.	.	.	.	.	.	.	.	.	.
*	*	*	*	*	*	*	*	*Xtremolo	*	*	*	*	*	*	*	*	*	*	*	*	*	*	*	*	*	*	*	*	*
!	!	!	!	!	!	!	!	!	!	!	!	!	!	!	!	!	!	!	!	!	!	!	!	!LO:LB:g=original	!	!	!	!	!
=52	=52	=52	=52	=52	=52	=52	=52	=52	=52	=52	=52	=52	=52	=52	=52	=52	=52	=52	=52	=52	=52	=52	=52	=52	=52	=52	=52	=52	=52
4AA-/	.	.	.	.	.	4a-/	.	4cc\	.	(8.A-\	-tu-	(8.c\	-tu-	.	.	.	.	2.r	.	2.r	.	4a-\	.	4cc\	.	.	.	.	.
.	.	.	.	.	.	.	.	.	.	16G\)	.	16c\)	.	.	.	.	.	.	.	.	.	.	.	.	.	.	.	.	.
4E-\	.	.	.	.	.	4g/	.	4b-\	.	4G\	-ra	4B-\	-ra	.	.	.	.	.	.	.	.	4g/	.	4b-\	.	.	.	.	.
!	!	!	!	!	!	!LO:TX:b:t=Cito Vertate&colon;	!	!	!	!	!	!	!	!	!	!	!	!	!	!	!	!	!	!	!	!	!	!	!
4r	.	.	.	.	.	4r	.	4r	.	4r	.	4r	.	.	.	.	.	.	.	.	.	4r	.	4r	.	.	.	.	.
!	!	!LO:LB:g=original	!	!	!	!	!	!	!	!	!	!	!	!	!	!	!	!	!	!	!	!	!	!	!	!	!	!	!
=53	=53	=53	=53	=53	=53	=53	=53	=53	=53	=53	=53	=53	=53	=53	=53	=53	=53	=53	=53	=53	=53	=53	=53	=53	=53	=53	=53	=53	=53
!	!LO:DY:t=f	!	!	!	!	!	!	!	!	!	!	!	!	!	!	!	!	!	!	!	!	!	!	!	!	!	!	!	!
8AA-/L	f	4A-/	f	4A-/	f	4a- 4e- 4A-/	.	4cc 4e- 4A-/	.	2A-\	Ju-	2c\	Ju-	2a-\	Ju-	2cc\	Ju-	2.a-\	f	2.cc\	.	2.a-\	.	2.cc\	f	4aa-\	f	4aa-\	.
8AA-/	.	.	.	.	.	.	.	.	.	.	.	.	.	.	.	.	.	.	.	.	.	.	.	.	.	.	.	.	.
!	!	!	!	!	!	!	!LO:DY:a:t=fr&colon;	!	!	!	!	!	!	!	!	!	!	!	!	!	!	!	!	!	!	!	!	!	!
8AA-/	.	4A-/	.	4A-/	.	4a- 4e- 4A-/	f	4cc 4e- 4A-/	.	.	.	.	.	.	.	.	.	.	.	.	.	.	.	.	.	4aa-\	.	4aa-\	.
8AA-/	.	.	.	.	.	.	.	.	.	.	.	.	.	.	.	.	.	.	.	.	.	.	.	.	.	.	.	.	.
8AA-/	.	4A-/	.	4A-/	.	4a- 4e- 4A-/	.	4cc 4e- 4A-/	.	4A-\	-di-	4c\	-di-	4a-\	-di-	4cc\	-di-	.	.	.	.	.	.	.	.	4aa-\	.	4aa-\	.
8AA-/J	.	.	.	.	.	.	.	.	.	.	.	.	.	.	.	.	.	.	.	.	.	.	.	.	.	.	.	.	.
*Xtremolo	*	*	*	*	*	*	*	*	*	*	*	*	*	*	*	*	*	*	*	*	*	*	*	*	*	*	*	*	*
!	!	!	!	!	!	!	!	!LO:LB:g=original	!	!	!	!	!	!	!	!	!	!	!	!	!	!LO:LB:g=original	!	!	!	!	!	!LO:LB:g=original	!
=54	=54	=54	=54	=54	=54	=54	=54	=54	=54	=54	=54	=54	=54	=54	=54	=54	=54	=54	=54	=54	=54	=54	=54	=54	=54	=54	=54	=54	=54
4BB-/	.	4B-/	.	4B-/	.	4g/	.	4b-/	.	2B-\	-can-	2d\	-can-	4.g\	-can-	(4.b-\	-can-	4.g\	.	4.b-\	.	4.gg\	.	4.bb-\	.	4bb-\	.	4bb-\	.
4BB-/	.	4B-/	.	4B-/	.	4f/	.	4a-/	.	.	.	.	.	.	.	.	.	.	.	.	.	.	.	.	.	4bb-\	.	4bb-\	.
.	.	.	.	.	.	.	.	.	.	.	.	.	.	(8f\	.	8a-\)	.	8f\	.	8a-\	.	8ff\	.	8aa-\	.	.	.	.	.
!	!	!	!	!	!	!	!	!	!	!LO:SIC:l:s=di:v	!	!LO:SIC:l:s=di:v	!	!LO:SIC:l:s=di:v	!	!LO:SIC:l:s=di:v	!	!	!	!	!	!	!	!	!	!	!	!	!
4BB-/	.	4B-/	.	4B-/	.	4e-/	.	4g/	.	4B-\	-ti	4e-\	-ti	4e-\)	-ti	4g\	-ti	4e-\	.	4g\	.	4ee-\	.	4gg\	.	4bb-\	.	4bb-\	.
!	!	!	!	!	!	!	!	!	!	!	!	!	!	!LO:LB:g=original	!	!	!	!LO:LB:g=original	!	!	!	!	!	!	!	!	!	!	!
=55	=55	=55	=55	=55	=55	=55	=55	=55	=55	=55	=55	=55	=55	=55	=55	=55	=55	=55	=55	=55	=55	=55	=55	=55	=55	=55	=55	=55	=55
4BB-/	.	2B-/	.	2B-/	.	4d/	.	4f/	.	4.B-\	re-	(4.B-\	res-	4.d\	res-	4.f/	raes-	2B-/	.	2f\	.	2dd\	.	2ff\	.	2bb-\	.	2bb-\	.
4BB-/	.	.	.	.	.	4d/	.	4f/	.	.	.	.	.	.	.	.	.	.	.	.	.	.	.	.	.	.	.	.	.
.	.	.	.	.	.	.	.	.	.	8B-\	.	8B-\)	.	8d\	.	8f/	.	.	.	.	.	.	.	.	.	.	.	.	.
4E-\	.	4E-/	.	4E-/	.	4e-/	.	4g/	.	4E-\	-spon-	4B-\	-pon-	4e-\	-pon-	4g/	-pon-	4r	.	4r	.	4ee-\	.	4gg\	.	4eee-\	.	4eee-\	.
!	!	!	!	!LO:LB:g=original	!	!	!	!	!	!	!	!LO:LB:g=original	!	!	!	!	!	!	!	!	!	!	!	!	!	!	!	!	!
=56	=56	=56	=56	=56	=56	=56	=56	=56	=56	=56	=56	=56	=56	=56	=56	=56	=56	=56	=56	=56	=56	=56	=56	=56	=56	=56	=56	=56	=56
2.BB-/	.	2.B-/	.	2.B-/	.	4e-/	.	4f/	.	2.BB-/	-su-	2.B-\	-su-	(4e-\	-su-	2.f/	-su-	2.r	.	2.r	.	4ee-\	.	2.ffT\	.	2.bb-\	.	2.bb-\	.
.	.	.	.	.	.	4d/	.	4f/	.	.	.	.	.	2d\)	.	.	.	.	.	.	.	2dd\	.	.	.	.	.	.	.
.	.	.	.	.	.	4d/	.	4f/	.	.	.	.	.	.	.	.	.	.	.	.	.	.	.	.	.	.	.	.	.
!	!	!	!	!	!	!	!	!	!	!	!	!	!	!	!	!	!	!	!	!	!	!	!	!	!	!LO:LB:g=original	!	!	!
=57	=57	=57	=57	=57	=57	=57	=57	=57	=57	=57	=57	=57	=57	=57	=57	=57	=57	=57	=57	=57	=57	=57	=57	=57	=57	=57	=57	=57	=57
2EE-/	.	2E-/	.	2E-/	.	4e-/	.	4e-/	.	2E-\	-ra	2B-\	-ra	2e-,\	-ra,	2e-/	-ra,	4r	.	4r	.	2ee-\	.	2ee-\	.	2ee-\	.	2eee-\	.
.	.	.	.	.	.	4ee-\	.	4gg\	.	.	.	.	.	.	.	.	.	4e-\	.	4g\	.	.	.	.	.	.	.	.	.
4r	.	4r	.	4r	.	4gg\	.	4bb-\	.	4r	.	4r	.	[<4g\	Bo-	4b-\	Bo-	[<4g\	.	[4b-\	.	4g/	.	4b-\	.	4r	.	4r	.
!	!	!	!	!	!	!	!	!	!	!LO:LB:g=original	!	!	!	!	!	!	!	!	!	!	!	!	!	!	!	!	!	!	!
=58	=58	=58	=58	=58	=58	=58	=58	=58	=58	=58	=58	=58	=58	=58	=58	=58	=58	=58	=58	=58	=58	=58	=58	=58	=58	=58	=58	=58	=58
!	!	!	!	!	!	!	!	!	!	!LO:TX:a:t=||:problem=znaczek najprawdopodobniej oznaczający podział nuty pół ze względu na słowa	!	!	!	!	!	!	!	!	!	!	!	!	!	!	!	!	!	!	!
2B-\	.	2b-\	.	2b-\	.	4B-/	.	4B-/	.	2.B-\	Bone	4r	.	4g\]	-ne	4b-\	-ne	4g\]	.	4b-\]	.	4g/	.	4b-\	.	2bb-\	.	2bb-\	.
!	!	!	!	!	!	!	!	!	!	!	!	!LO:TX:a:t=||:problem=znaczek najprawdopodobniej oznaczający podział nuty pół ze względu na słowa	!	!	!	!	!	!	!	!	!	!	!	!	!	!	!	!	!
.	.	.	.	.	.	4dd\	.	4ff\	.	.	.	2B-\	Bone	8f\L	De-	8a-\L	De-	8f\L	.	8a-\L	.	8f/L	.	8a-\L	.	.	.	.	.
.	.	.	.	.	.	.	.	.	.	.	.	.	.	8e-\J	.	8g\J	.	8e-\J	.	8g\J	.	8e-/J	.	8g\J	.	.	.	.	.
4BB-/	.	4B-/	.	4B-/	.	4ff\	.	4aa-\	.	.	.	.	.	4f\	.	4a-\	.	4f\	.	4a-\	.	4f/	.	4a-\	.	4bb-\	.	4bb-\	.
!	!	!	!	!	!	!	!	!	!	!	!	!	!	!	!	!LO:LB:g=original	!	!	!	!	!	!	!	!	!	!	!	!	!
=59	=59	=59	=59	=59	=59	=59	=59	=59	=59	=59	=59	=59	=59	=59	=59	=59	=59	=59	=59	=59	=59	=59	=59	=59	=59	=59	=59	=59	=59
!	!	!	!	!	!	!	!	!	!LO:DY:t=po	!LO:TX:a:t=||:problem=znaczek najprawdopodobniej oznaczający podział nuty pół ze względu na słowa	!	!LO:TX:a:t=||:problem=znaczek najprawdopodobniej oznaczający podział nuty pół ze względu na słowa	!	!	!	!	!	!	!	!	!	!	!	!	!	!	!	!	!
4E-\	.	2e-\	.	2e-\	.	4e-/	.	4e-/	p	2.E-\	Deus	2B-\	deus	2e-\	-us.	2g\	-us	4e-\	.	4g\	.	4e-/	.	4g\	.	2ee-\	.	2eee-\	.
4r	.	.	.	.	.	4r	.	4g/	.	.	.	.	.	.	.	.	.	(4e-\	.	(4g\	.	4ee-\	.	4gg\	.	.	.	.	.
4r	.	4r	.	4r	.	4g/	p	4b-/	.	.	.	4r	.	4r	.	4r	.	4g\)	.	[<4b-\)	.	4gg\	.	4bb-\	.	4r	.	4r	.
=60	=60	=60	=60	=60	=60	=60	=60	=60	=60	=60	=60	=60	=60	=60	=60	=60	=60	=60	=60	=60	=60	=60	=60	=60	=60	=60	=60	=60	=60
!	!LO:DY:t=po	!	!	!	!	!	!	!	!	!LO:TX:a:t=1.	!	!LO:TX:a:t=1.	!	!	!	!	!	!	!	!	!	!	!	!	!	!LO:TX:a:t=1.	!	!	!
2B-\	p	2.r	.	2.r	.	4B-/	.	4B-/	.	2.r	.	2.r	.	4r	.	4r	.	4g\	.	4b-\]	.	4gg\	.	4bb-\	.	2.r	.	2.r	.
.	.	.	.	.	.	4d/	.	4f/	.	.	.	.	.	4r	.	4r	.	8f\L	.	8a-\L	.	8ff\L	.	8aa-\L	.	.	.	.	.
.	.	.	.	.	.	.	.	.	.	.	.	.	.	.	.	.	.	8e-\J	.	8g\J	.	8ee-\J	.	8gg\J	.	.	.	.	.
4BB-/	.	.	.	.	.	4f/	.	4a-/	.	.	.	.	.	4f\	Do-	4a-\	Do-	4f\	.	4a-\	.	4ff\	.	4aa-\	.	.	.	.	.
!LO:LB:g=original	!	!	!	!	!	!LO:LB:g=original	!	!	!	!	!	!	!	!	!	!	!	!	!	!LO:LB:g=original	!	!	!	!	!	!	!	!	!
=61	=61	=61	=61	=61	=61	=61	=61	=61	=61	=61	=61	=61	=61	=61	=61	=61	=61	=61	=61	=61	=61	=61	=61	=61	=61	=61	=61	=61	=61
!	!LO:DY:t=fr&colon;	!	!	!	!	!LO:TX:a:t=P:problem=mixed beam	!LO:DY:t=fr&colon;	!LO:TX:a:t=P:problem=mixed beam	!LO:DY:t=fr&colon;	!LO:TX:a:t=||:problem=znaczek najprawdopodobniej oznaczający podział nuty pół ze względu na słowa	!	!LO:TX:a:t=||:problem=znaczek najprawdopodobniej oznaczający podział nuty pół ze względu na słowa	!	!	!	!	!	!	!	!	!	!	!	!	!	!	!	!	!
4E-\	f	4e-\	.	4e-\	.	8.e-/L	f	8.g/L	f	2.B-\	Dona	2.B-\	Dona	2e-\	-na	2g\	-na	8.e-\L	.	8.g\L	.	8.ee-\L	.	8.gg\L	.	4ee-\	.	4eee-\	.
.	.	.	.	.	.	16ff\Jk	.	16aa-\Jk	.	.	.	.	.	.	.	.	.	16f\Jk	.	16a-\Jk	.	16ff\Jk	.	16aa-\Jk	.	.	.	.	.
!	!	!	!	!	!	!	!	!	!	!	!	!	!	!	!	!	!	!	!	!	!	!	!	!LO:LB:g=original	!	!	!	!	!
4B-\	.	4b-\	.	4b-\	.	4ee-\	.	4gg\	.	.	.	.	.	.	.	.	.	4e-\	.	4g\	.	4ee-\	.	4gg\	.	4bb-\	.	4bb-\	.
4BB-/	.	4B-/	.	4B-/	.	4dd\	.	4ff\	.	.	.	.	.	4d\	e-	4f\	e-	8.B-/L	.	4f\	.	4dd\	.	4ff\	.	4bb-\	.	4bb-\	.
.	.	.	.	.	.	.	.	.	.	.	.	.	.	.	.	.	.	16B-/Jk	.	.	.	.	.	.	.	.	.	.	.
!	!	!	!	!	!	!	!	!	!	!	!	!	!	!	!	!	!	!	!	!	!	!LO:LB:g=original	!	!	!	!	!	!	!
=62	=62	=62	=62	=62	=62	=62	=62	=62	=62	=62	=62	=62	=62	=62	=62	=62	=62	=62	=62	=62	=62	=62	=62	=62	=62	=62	=62	=62	=62
!	!LO:DY:t=po	!	!	!	!	!	!	!	!	!LO:TX:a:t=||:problem=znaczek najprawdopodobniej oznaczający podział nuty pół ze względu na słowa	!	!LO:TX:a:t=||:problem=znaczek najprawdopodobniej oznaczający podział nuty pół ze względu na słowa	!	!	!	!	!	!	!	!	!	!	!	!	!	!	!	!	!
4E-\	p	4e-\	.	4e-\	.	8g/L	p	4ee-\	.	2E-\	eis	2B-\	eis	2e-\	-is	2e-/	-is	8g\L	.	8b-\L	.	8.ee-\L	.	8.gg\L	.	4ee-\	.	4ee-\	.
.	.	.	.	.	.	8f/J	.	.	.	.	.	.	.	.	.	.	.	8f\J	.	8a-\J	.	.	.	.	.	.	.	.	.
.	.	.	.	.	.	.	.	.	.	.	.	.	.	.	.	.	.	.	.	.	.	16ff\Jk	.	16aa-\Jk	.	.	.	.	.
4B-\	.	4r	.	4r	.	4e-/	.	4g/	p	.	.	.	.	.	.	.	.	4e-\	.	4g\	.	4ee-\	.	4gg\	.	4r	.	4r	.
4BB-/	.	4r	.	4r	.	4d/	.	4f/	.	4r	.	4r	.	4r	.	4r	.	4B-/	.	4f\	.	4dd\	.	4ff\	.	4r	.	4r	.
!	!	!	!	!	!	!	!	!	!	!	!	!	!	!	!	!	!	!LO:LB:g=original	!	!	!	!	!	!	!	!	!	!LO:LB:g=original	!
=63	=63	=63	=63	=63	=63	=63	=63	=63	=63	=63	=63	=63	=63	=63	=63	=63	=63	=63	=63	=63	=63	=63	=63	=63	=63	=63	=63	=63	=63
!	!LO:DY:t=fr	!	!	!	!	!	!	!	!	!LO:TX:a:t=||:problem=znaczek najprawdopodobniej oznaczający podział nuty pół ze względu na słowa	!	!LO:TX:a:t=||:problem=znaczek najprawdopodobniej oznaczający podział nuty pół ze względu na słowa	!	!LO:TX:a:t=||:problem=znaczek najprawdopodobniej oznaczający podział nuty pół ze względu na słowa	!	!	!	!	!	!	!	!	!	!	!	!	!	!	!
4E-\	f	4e-\	.	4e-\	.	4e-/	.	4e-/	.	2.E-\	Requi-	2.B-\	Requi-	2.e-\	Requi-	2.g\	Requi-	4e-\	.	4g\	.	4ee-\	.	4ee-\	.	4ee-\	.	4ee-\	.
!	!	!	!	!	!	!	!LO:DY:t=fr&colon;	!	!LO:DY:t=fr&colon;	!	!	!	!	!	!	!	!	!	!	!	!	!	!	!	!	!	!	!	!
4E-\	.	4E-/	.	4E-/	.	4g/	f	4b-\	f	.	.	.	.	.	.	.	.	8g\L	.	8b-\L	.	8g/L	.	8b-/L	.	4eee-\	.	4eee-\	.
.	.	.	.	.	.	.	.	.	.	.	.	.	.	.	.	.	.	8f\	.	8a-\	.	8f/	.	8a-/	.	.	.	.	.
4E-\	.	4E-/	.	4E-/	.	4g/	.	4b-\	.	.	.	.	.	.	.	.	.	8g\	.	8b-\	.	8g/	.	8b-/	.	4ee-\	.	4eee-\	.
.	.	.	.	.	.	.	.	.	.	.	.	.	.	.	.	.	.	8f\J	.	8a-\J	.	8f/J	.	8a-/J	.	.	.	.	.
!	!	!LO:LB:g=original	!	!	!	!	!	!	!	!	!	!	!	!	!	!	!	!	!	!	!	!	!	!	!	!	!	!	!
=64	=64	=64	=64	=64	=64	=64	=64	=64	=64	=64	=64	=64	=64	=64	=64	=64	=64	=64	=64	=64	=64	=64	=64	=64	=64	=64	=64	=64	=64
2.E-\	.	2.E-/	.	2.E-/	.	2.g/	.	2.b-\	.	2.E-;\	-em	2.B-;\	-em	2.e-;\	-em	2.g;\	-em	2.e-\	.	2.g\	.	2e-/	.	2g/	.	2.ee-\	.	2.eee-\	.
.	.	.	.	.	.	.	.	.	.	.	.	.	.	.	.	.	.	.	.	.	.	4r	.	4r	.	.	.	.	.
==	==	==	==	==	==	==	==	==	==	==	==	==	==	==	==	==	==	==	==	==	==	==	==	==	==	==	==	==	==
*-	*-	*-	*-	*-	*-	*-	*-	*-	*-	*-	*-	*-	*-	*-	*-	*-	*-	*-	*-	*-	*-	*-	*-	*-	*-	*-	*-	*-	*-
!!!system-decoration: [g1][g2][g3][g4]s15
!!!RDF**kern: > = above
!!!RDF**kern: < = below
!!!RDF**dynam: p = "po:"
!!!RDF**dynam: f = "f:"
!!!ENC: Andrzej Gręziak
!!!END: 2020-07-17
!!!ENC: Marta Lawrence
!!!END: 2020-09-26
